; generated by Slic3r Prusa Edition 1.40.1+ on 2018-08-03 at 20:11:25

; 

; external perimeters extrusion width = 0.45mm
; perimeters extrusion width = 0.45mm
; infill extrusion width = 0.45mm
; solid infill extrusion width = 0.45mm
; top infill extrusion width = 0.40mm
; first layer extrusion width = 0.42mm

M107
M115 U3.3.1 ; tell printer latest fw version
M201 X1000 Y1000 Z1000 E9000 ; sets maximum accelerations, mm/sec^2
M203 X200 Y200 Z12 E120 ; sets maximum feedrates, mm/sec
M204 S1250 T1250 ; sets acceleration (S) and retract acceleration (T)
M205 X8 Y8 Z0.4 E1.5 ; sets the jerk limits, mm/sec
M205 S0 T0 ; sets the minimum extruding and travel feed rate, mm/sec
M83  ; extruder relative mode
M104 S215 ; set extruder temp
M140 S60 ; set bed temp
M190 S60 ; wait for bed temp
M109 S215 ; wait for extruder temp
G28 W ; home all without mesh bed level
G80 ; mesh bed leveling
G1 Y-3.0 F1000.0 ; go outside print area
G92 E0.0
G1 X60.0 E9.0  F1000.0 ; intro line
G1 X100.0 E12.5  F1000.0 ; intro line
G92 E0.0
M221 S95
M900 K30; Filament gcode
G21 ; set units to millimeters
G90 ; use absolute coordinates
M83 ; use relative distances for extrusion
;BEFORE_LAYER_CHANGE
G92 E0.0
;0.2


G1 E-0.80000 F2100.00000
G1 Z0.600 F10800.000
;AFTER_LAYER_CHANGE
;0.2
G1 X125.002 Y80.697
G1 Z0.200
G1 E0.80000 F2100.00000
M204 S1000
G1 F1800
G1 X126.326 Y79.019 E0.06700
G1 X127.267 Y78.013 E0.04319
G1 X128.152 Y77.236 E0.03691
G1 X129.256 Y76.450 E0.04251
G1 X130.457 Y75.777 E0.04318
G1 X131.834 Y75.191 E0.04692
G1 X133.104 Y74.781 E0.04183
G1 X135.006 Y74.339 E0.06122
G1 X136.939 Y74.091 E0.06112
G1 X138.462 Y74.026 E0.04779
G1 X140.904 Y74.239 E0.07685
G1 X143.244 Y74.827 E0.07567
G1 X145.391 Y75.748 E0.07324
G1 X147.464 Y77.037 E0.07652
G1 X148.382 Y77.777 E0.03699
G1 X149.316 Y78.667 E0.04044
G1 X150.347 Y79.801 E0.04807
G1 X151.087 Y80.759 E0.03795
G1 X151.768 Y81.820 E0.03953
G1 X152.803 Y83.759 E0.06892
G1 X153.576 Y85.589 E0.06228
G1 X154.391 Y88.552 E0.09637
G1 X154.842 Y90.789 E0.07155
G1 X155.120 Y92.849 E0.06518
G1 X155.230 Y94.729 E0.05904
G1 X154.491 Y122.099 E0.85847
G1 X154.281 Y123.691 E0.05035
G1 X153.825 Y125.587 E0.06116
G1 X153.201 Y127.328 E0.05798
G1 X152.300 Y129.162 E0.06409
G1 X151.333 Y130.684 E0.05651
G1 X150.079 Y132.248 E0.06287
G1 X148.682 Y133.632 E0.06164
G1 X147.095 Y134.837 E0.06249
G1 X145.999 Y135.429 E0.03906
G1 X144.919 Y135.862 E0.03646
G1 X143.724 Y136.192 E0.03890
G1 X142.511 Y136.375 E0.03845
G1 X132.661 Y136.426 E0.30886
G1 X131.569 Y136.366 E0.03426
G1 X129.630 Y135.972 E0.06204
G1 X127.772 Y135.211 E0.06296
G1 X126.173 Y134.172 E0.05979
G1 X124.492 Y132.632 E0.07148
G1 X123.038 Y130.892 E0.07111
G1 X122.217 Y129.677 E0.04599
G1 X121.516 Y128.406 E0.04550
G1 X120.615 Y126.288 E0.07215
G1 X120.032 Y124.191 E0.06825
G1 X119.731 Y122.225 E0.06238
G1 X119.667 Y119.979 E0.07043
G1 X121.975 Y89.742 E0.95083
G1 X122.453 Y86.803 E0.09334
G1 X123.042 Y84.602 E0.07146
G1 X123.512 Y83.352 E0.04188
G1 X124.197 Y81.979 E0.04809
G1 X124.970 Y80.747 E0.04561
G1 F8640
G1 X126.326 Y79.019 E-0.50721
G1 X127.074 Y78.220 E-0.25279
G1 E-0.04000 F2100.00000
G1 Z0.800 F10800.000
G1 X151.524 Y112.266
G1 Z0.200
G1 E0.80000 F2100.00000
G1 F1800
G1 X151.825 Y112.770 E0.01841
G1 X152.582 Y114.409 E0.05660
G1 X153.158 Y116.122 E0.05666
G1 X153.546 Y117.889 E0.05674
G1 X153.745 Y119.795 E0.06007
G1 X153.741 Y121.420 E0.05094
G1 X153.580 Y123.034 E0.05087
G1 X153.162 Y124.997 E0.06293
G1 X152.587 Y126.712 E0.05669
G1 X151.822 Y128.368 E0.05720
G1 X150.870 Y129.947 E0.05781
G1 X149.702 Y131.464 E0.06004
G1 X148.371 Y132.835 E0.05992
G1 X147.090 Y133.880 E0.05182
G1 X145.645 Y134.738 E0.05267
G1 X142.323 Y135.617 E0.10776
G1 X139.513 Y135.484 E0.08820
G1 X137.032 Y134.672 E0.08185
G1 X135.950 Y135.166 E0.03728
G1 X133.964 Y135.599 E0.06373
G1 X131.664 Y135.602 E0.07212
G1 X129.413 Y135.042 E0.07275
G1 X127.269 Y133.981 E0.07499
G1 X125.255 Y132.267 E0.08292
G1 X123.945 Y130.771 E0.06237
G1 X122.826 Y129.136 E0.06211
G1 X122.054 Y127.692 E0.05134
G1 X121.421 Y126.164 E0.05186
G1 X120.861 Y124.235 E0.06298
G1 X120.550 Y122.372 E0.05922
G1 X120.452 Y120.583 E0.05618
G1 X120.547 Y118.794 E0.05616
G1 X120.849 Y116.953 E0.05848
G1 X121.352 Y115.167 E0.05820
G1 X121.983 Y113.591 E0.05322
G1 X122.185 Y113.203 E0.01371
G1 X122.057 Y112.468 E0.02339
G1 X121.956 Y111.341 E0.03548
G1 X121.961 Y110.371 E0.03042
G1 X121.908 Y108.774 E0.05010
G1 X122.194 Y106.766 E0.06357
G1 X122.516 Y105.346 E0.04568
G1 X122.973 Y103.951 E0.04601
G1 X123.505 Y102.581 E0.04609
G1 X123.601 Y102.390 E0.00671
G1 X123.710 Y101.851 E0.01723
G1 X123.916 Y101.103 E0.02434
G1 X123.494 Y100.001 E0.03699
G1 X123.219 Y99.151 E0.02800
G1 X122.984 Y98.258 E0.02896
G1 X122.632 Y97.085 E0.03842
G1 X122.329 Y95.593 E0.04773
G1 X122.226 Y94.682 E0.02875
G1 X122.160 Y93.646 E0.03255
G1 X122.178 Y92.206 E0.04514
G1 X122.258 Y90.946 E0.03959
G1 X122.345 Y90.279 E0.02109
G1 X122.425 Y89.364 E0.02879
G1 X123.091 Y85.854 E0.11202
G1 X123.499 Y84.558 E0.04260
G1 X124.060 Y83.234 E0.04507
G1 X124.872 Y81.858 E0.05012
G1 X125.838 Y80.583 E0.05016
G1 X126.914 Y79.346 E0.05137
G1 X128.015 Y78.266 E0.04839
G1 X129.150 Y77.372 E0.04528
G1 X130.376 Y76.614 E0.04521
G1 X131.768 Y75.956 E0.04825
G1 X133.173 Y75.463 E0.04670
G1 X134.670 Y75.083 E0.04842
G1 X136.156 Y74.845 E0.04719
G1 X137.678 Y74.736 E0.04784
G1 X139.039 Y74.750 E0.04270
G1 X140.505 Y74.890 E0.04616
G1 X141.979 Y75.178 E0.04710
G1 X143.718 Y75.743 E0.05733
G1 X145.024 Y76.333 E0.04492
G1 X146.211 Y77.008 E0.04282
G1 X147.494 Y77.922 E0.04940
G1 X148.475 Y78.765 E0.04054
G1 X149.376 Y79.667 E0.03999
G1 X150.370 Y80.867 E0.04884
G1 X151.037 Y81.838 E0.03695
G1 X151.386 Y82.411 E0.02103
G1 X151.796 Y82.933 E0.02080
G1 X152.469 Y84.006 E0.03973
G1 X153.054 Y85.276 E0.04386
G1 X153.467 Y86.525 E0.04123
G1 X153.663 Y87.627 E0.03510
G1 X154.025 Y88.734 E0.03651
G1 X154.296 Y89.932 E0.03851
G1 X154.506 Y91.221 E0.04096
G1 X154.564 Y92.222 E0.03145
G1 X154.761 Y94.290 E0.06513
G1 X154.737 Y96.429 E0.06707
G1 X154.626 Y97.284 E0.02704
G1 X154.531 Y97.762 E0.01527
G1 X154.490 Y98.265 E0.01583
G1 X154.374 Y99.054 E0.02498
G1 X154.258 Y100.061 E0.03181
G1 X153.827 Y101.891 E0.05893
G1 X153.390 Y103.422 E0.04993
G1 X152.993 Y104.433 E0.03406
G1 X152.888 Y104.765 E0.01090
G1 X152.455 Y106.439 E0.05421
G1 X152.479 Y106.591 E0.00482
G1 X152.536 Y108.034 E0.04529
G1 X152.306 Y109.990 E0.06176
G1 X151.667 Y111.977 E0.06545
G1 X151.551 Y112.213 E0.00823
G1 X151.092 Y112.280 F10800.000
G1 F1800
G1 X151.487 Y112.938 E0.02405
G1 X152.228 Y114.539 E0.05530
G1 X152.798 Y116.232 E0.05601
G1 X153.175 Y117.960 E0.05545
G1 X153.368 Y119.804 E0.05815
G1 X153.365 Y121.392 E0.04977
G1 X153.206 Y122.986 E0.05025
G1 X152.795 Y124.908 E0.06161
G1 X152.233 Y126.582 E0.05537
G1 X151.485 Y128.200 E0.05591
G1 X150.553 Y129.743 E0.05650
G1 X149.410 Y131.226 E0.05870
G1 X148.108 Y132.565 E0.05856
G1 X146.863 Y133.579 E0.05035
G1 X145.476 Y134.400 E0.05054
G1 X142.312 Y135.239 E0.10264
G1 X139.556 Y135.109 E0.08650
G1 X137.303 Y134.371 E0.07432
G1 X137.065 Y134.241 E0.00850
G1 X135.850 Y134.802 E0.04199
G1 X133.904 Y135.226 E0.06243
G1 X131.688 Y135.225 E0.06948
G1 X129.525 Y134.681 E0.06994
G1 X127.458 Y133.654 E0.07237
G1 X125.529 Y132.009 E0.07948
G1 X124.249 Y130.548 E0.06089
G1 X123.153 Y128.949 E0.06079
G1 X122.391 Y127.523 E0.05072
G1 X121.773 Y126.029 E0.05066
G1 X121.231 Y124.161 E0.06098
G1 X120.926 Y122.340 E0.05790
G1 X120.829 Y120.592 E0.05490
G1 X120.921 Y118.844 E0.05487
G1 X121.215 Y117.045 E0.05716
G1 X121.712 Y115.279 E0.05754
G1 X122.330 Y113.741 E0.05197
G1 X122.578 Y113.264 E0.01685
G1 X122.431 Y112.427 E0.02666
G1 X122.333 Y111.316 E0.03495
G1 X122.338 Y110.366 E0.02981
G1 X122.285 Y108.778 E0.04981
G1 X122.563 Y106.842 E0.06131
G1 X122.877 Y105.455 E0.04461
G1 X123.327 Y104.083 E0.04525
G1 X123.853 Y102.726 E0.04562
G1 X123.960 Y102.515 E0.00744
G1 X124.075 Y101.945 E0.01823
G1 X124.312 Y101.083 E0.02802
G1 X123.848 Y99.871 E0.04072
G1 X123.582 Y99.050 E0.02703
G1 X123.347 Y98.156 E0.02900
G1 X122.999 Y97.001 E0.03781
G1 X122.703 Y95.542 E0.04669
G1 X122.602 Y94.653 E0.02805
G1 X122.537 Y93.629 E0.03218
G1 X122.555 Y92.216 E0.04431
G1 X122.634 Y90.976 E0.03894
G1 X122.720 Y90.320 E0.02075
G1 X122.800 Y89.407 E0.02875
G1 X123.454 Y85.957 E0.11010
G1 X123.850 Y84.696 E0.04141
G1 X124.391 Y83.415 E0.04361
G1 X125.180 Y82.077 E0.04870
G1 X126.135 Y80.816 E0.04961
G1 X127.193 Y79.599 E0.05054
G1 X128.257 Y78.556 E0.04674
G1 X129.358 Y77.688 E0.04395
G1 X130.566 Y76.941 E0.04453
G1 X131.920 Y76.301 E0.04695
G1 X133.290 Y75.821 E0.04552
G1 X134.754 Y75.450 E0.04736
G1 X136.207 Y75.219 E0.04613
G1 X137.697 Y75.113 E0.04682
G1 X139.027 Y75.127 E0.04172
G1 X140.460 Y75.265 E0.04512
G1 X141.896 Y75.546 E0.04588
G1 X143.592 Y76.098 E0.05593
G1 X144.860 Y76.673 E0.04366
G1 X146.016 Y77.331 E0.04170
G1 X147.255 Y78.214 E0.04770
G1 X148.213 Y79.036 E0.03960
G1 X149.103 Y79.927 E0.03949
G1 X150.064 Y81.087 E0.04722
G1 X150.723 Y82.047 E0.03652
G1 X151.076 Y82.627 E0.02127
G1 X151.482 Y83.142 E0.02057
G1 X152.143 Y84.196 E0.03902
G1 X152.707 Y85.424 E0.04237
G1 X153.105 Y86.630 E0.03982
G1 X153.296 Y87.719 E0.03467
G1 X153.659 Y88.826 E0.03653
G1 X153.927 Y90.009 E0.03804
G1 X154.132 Y91.272 E0.04010
G1 X154.188 Y92.251 E0.03075
G1 X154.385 Y94.316 E0.06504
G1 X154.361 Y96.392 E0.06509
G1 X154.253 Y97.229 E0.02649
G1 X154.157 Y97.710 E0.01536
G1 X154.116 Y98.217 E0.01594
G1 X154.000 Y99.005 E0.02498
G1 X153.888 Y99.986 E0.03096
G1 X153.463 Y101.792 E0.05816
G1 X153.030 Y103.310 E0.04950
G1 X152.637 Y104.308 E0.03363
G1 X152.526 Y104.661 E0.01162
G1 X152.069 Y106.424 E0.05709
G1 X152.103 Y106.620 E0.00622
G1 X152.160 Y108.005 E0.04347
G1 X151.934 Y109.928 E0.06070
G1 X151.314 Y111.846 E0.06322
G1 X151.120 Y112.227 E0.01340
G1 X150.660 Y112.294 F10800.000
G1 F1800
G1 X151.150 Y113.106 E0.02973
G1 X151.874 Y114.669 E0.05401
G1 X152.437 Y116.342 E0.05536
G1 X152.805 Y118.030 E0.05415
G1 X152.991 Y119.813 E0.05624
G1 X152.987 Y121.382 E0.04916
G1 X152.832 Y122.938 E0.04905
G1 X152.429 Y124.818 E0.06029
G1 X151.879 Y126.452 E0.05404
G1 X151.147 Y128.032 E0.05461
G1 X150.236 Y129.538 E0.05520
G1 X149.132 Y130.971 E0.05670
G1 X147.861 Y132.280 E0.05721
G1 X146.658 Y133.262 E0.04868
G1 X145.306 Y134.062 E0.04928
G1 X142.299 Y134.861 E0.09753
G1 X139.649 Y134.742 E0.08320
G1 X137.441 Y134.020 E0.07284
G1 X137.086 Y133.815 E0.01285
G1 X135.749 Y134.438 E0.04627
G1 X133.844 Y134.853 E0.06112
G1 X131.713 Y134.848 E0.06683
G1 X129.637 Y134.321 E0.06713
G1 X127.647 Y133.327 E0.06975
G1 X125.804 Y131.750 E0.07607
G1 X124.554 Y130.326 E0.05942
G1 X123.481 Y128.762 E0.05946
G1 X122.735 Y127.370 E0.04951
G1 X122.126 Y125.895 E0.05004
G1 X121.601 Y124.088 E0.05899
G1 X121.302 Y122.309 E0.05658
G1 X121.207 Y120.601 E0.05362
G1 X121.295 Y118.895 E0.05357
G1 X121.585 Y117.117 E0.05649
G1 X122.072 Y115.391 E0.05622
G1 X122.676 Y113.890 E0.05071
G1 X122.972 Y113.326 E0.01999
G1 X122.806 Y112.385 E0.02995
G1 X122.709 Y111.292 E0.03441
G1 X122.715 Y110.361 E0.02920
G1 X122.663 Y108.782 E0.04952
G1 X122.933 Y106.918 E0.05905
G1 X123.239 Y105.563 E0.04355
G1 X123.680 Y104.215 E0.04450
G1 X124.200 Y102.872 E0.04514
G1 X124.319 Y102.641 E0.00816
G1 X124.440 Y102.039 E0.01926
G1 X124.703 Y101.086 E0.03099
G1 X124.623 Y100.820 E0.00870
G1 X124.201 Y99.738 E0.03639
G1 X123.945 Y98.950 E0.02600
G1 X123.710 Y98.053 E0.02905
G1 X123.367 Y96.917 E0.03721
G1 X123.077 Y95.491 E0.04564
G1 X122.978 Y94.624 E0.02734
G1 X122.913 Y93.612 E0.03180
G1 X122.932 Y92.226 E0.04348
G1 X123.010 Y91.007 E0.03829
G1 X123.095 Y90.361 E0.02042
G1 X123.175 Y89.449 E0.02872
G1 X123.817 Y86.059 E0.10819
G1 X124.201 Y84.834 E0.04023
G1 X124.722 Y83.595 E0.04214
G1 X125.499 Y82.278 E0.04795
G1 X126.432 Y81.049 E0.04838
G1 X127.473 Y79.853 E0.04972
G1 X128.514 Y78.832 E0.04571
G1 X129.582 Y77.991 E0.04265
G1 X130.754 Y77.267 E0.04319
G1 X132.071 Y76.647 E0.04564
G1 X133.406 Y76.180 E0.04434
G1 X134.838 Y75.818 E0.04631
G1 X136.258 Y75.592 E0.04508
G1 X137.715 Y75.490 E0.04581
G1 X139.015 Y75.504 E0.04075
G1 X140.414 Y75.639 E0.04407
G1 X141.811 Y75.914 E0.04466
G1 X143.465 Y76.454 E0.05452
G1 X144.696 Y77.013 E0.04241
G1 X145.821 Y77.654 E0.04059
G1 X147.016 Y78.505 E0.04601
G1 X147.952 Y79.308 E0.03865
G1 X148.830 Y80.188 E0.03899
G1 X149.758 Y81.308 E0.04560
G1 X150.409 Y82.256 E0.03608
G1 X150.765 Y82.843 E0.02151
G1 X151.168 Y83.351 E0.02034
G1 X151.817 Y84.386 E0.03830
G1 X152.360 Y85.571 E0.04087
G1 X152.742 Y86.734 E0.03840
G1 X152.929 Y87.810 E0.03424
G1 X153.293 Y88.918 E0.03655
G1 X153.558 Y90.087 E0.03758
G1 X153.758 Y91.322 E0.03924
G1 X153.812 Y92.279 E0.03005
G1 X154.009 Y94.342 E0.06496
G1 X153.986 Y96.354 E0.06310
G1 X153.879 Y97.174 E0.02593
G1 X153.783 Y97.658 E0.01545
G1 X153.742 Y98.168 E0.01605
G1 X153.626 Y98.956 E0.02499
G1 X153.518 Y99.911 E0.03011
G1 X153.100 Y101.692 E0.05738
G1 X152.670 Y103.197 E0.04907
G1 X152.281 Y104.182 E0.03319
G1 X152.163 Y104.558 E0.01235
G1 X151.683 Y106.411 E0.06003
G1 X151.727 Y106.650 E0.00761
G1 X151.783 Y107.976 E0.04162
G1 X151.562 Y109.865 E0.05963
G1 X150.960 Y111.714 E0.06097
G1 X150.688 Y112.241 E0.01859
G1 X150.227 Y112.307 F10800.000
G1 F1800
G1 X150.812 Y113.274 E0.03545
G1 X151.520 Y114.799 E0.05270
G1 X152.076 Y116.453 E0.05470
G1 X152.434 Y118.099 E0.05284
G1 X152.613 Y119.823 E0.05433
G1 X152.611 Y121.353 E0.04798
G1 X152.457 Y122.890 E0.04843
G1 X152.062 Y124.729 E0.05896
G1 X151.525 Y126.321 E0.05271
G1 X150.809 Y127.864 E0.05332
G1 X149.919 Y129.334 E0.05389
G1 X148.840 Y130.732 E0.05536
G1 X147.598 Y132.009 E0.05585
G1 X146.431 Y132.960 E0.04721
G1 X145.136 Y133.724 E0.04714
G1 X142.287 Y134.483 E0.09247
G1 X139.741 Y134.376 E0.07988
G1 X137.579 Y133.668 E0.07132
G1 X137.108 Y133.387 E0.01721
G1 X135.647 Y134.075 E0.05062
G1 X133.784 Y134.480 E0.05978
G1 X131.738 Y134.471 E0.06415
G1 X129.751 Y133.961 E0.06432
G1 X127.837 Y133.001 E0.06714
G1 X126.078 Y131.491 E0.07267
G1 X124.858 Y130.103 E0.05796
G1 X123.808 Y128.575 E0.05813
G1 X123.072 Y127.200 E0.04889
G1 X122.478 Y125.761 E0.04883
G1 X121.971 Y124.015 E0.05700
G1 X121.678 Y122.277 E0.05526
G1 X121.584 Y120.610 E0.05234
G1 X121.668 Y118.945 E0.05226
G1 X121.956 Y117.188 E0.05582
G1 X122.432 Y115.504 E0.05490
G1 X123.022 Y114.040 E0.04946
G1 X123.366 Y113.387 E0.02315
G1 X123.181 Y112.344 E0.03323
G1 X123.085 Y111.268 E0.03386
G1 X123.092 Y110.356 E0.02859
G1 X123.040 Y108.787 E0.04924
G1 X123.302 Y106.994 E0.05679
G1 X123.600 Y105.672 E0.04249
G1 X124.033 Y104.346 E0.04374
G1 X124.548 Y103.019 E0.04465
G1 X124.679 Y102.767 E0.00887
G1 X124.806 Y102.132 E0.02031
G1 X125.096 Y101.081 E0.03420
G1 X124.979 Y100.697 E0.01258
G1 X124.558 Y99.617 E0.03634
G1 X124.309 Y98.849 E0.02532
G1 X124.073 Y97.951 E0.02910
G1 X123.735 Y96.833 E0.03662
G1 X123.450 Y95.440 E0.04459
G1 X123.354 Y94.596 E0.02664
G1 X123.290 Y93.596 E0.03142
G1 X123.309 Y92.236 E0.04265
G1 X123.386 Y91.037 E0.03765
G1 X123.470 Y90.402 E0.02008
G1 X123.550 Y89.491 E0.02869
G1 X124.181 Y86.161 E0.10628
G1 X124.552 Y84.972 E0.03905
G1 X125.054 Y83.776 E0.04066
G1 X125.818 Y82.479 E0.04720
G1 X126.728 Y81.282 E0.04714
G1 X127.752 Y80.106 E0.04890
G1 X128.755 Y79.122 E0.04406
G1 X129.790 Y78.305 E0.04132
G1 X130.925 Y77.604 E0.04184
G1 X132.223 Y76.992 E0.04499
G1 X133.522 Y76.539 E0.04315
G1 X134.922 Y76.186 E0.04526
G1 X136.309 Y75.966 E0.04402
G1 X137.734 Y75.866 E0.04480
G1 X139.002 Y75.881 E0.03978
G1 X140.368 Y76.014 E0.04302
G1 X141.727 Y76.282 E0.04343
G1 X143.337 Y76.809 E0.05312
G1 X144.532 Y77.352 E0.04116
G1 X145.626 Y77.976 E0.03948
G1 X146.777 Y78.797 E0.04432
G1 X147.700 Y79.590 E0.03816
G1 X148.557 Y80.448 E0.03803
G1 X149.452 Y81.528 E0.04398
G1 X150.096 Y82.465 E0.03565
G1 X150.455 Y83.059 E0.02176
G1 X150.854 Y83.561 E0.02010
G1 X151.491 Y84.575 E0.03757
G1 X152.012 Y85.718 E0.03937
G1 X152.379 Y86.838 E0.03698
G1 X152.562 Y87.902 E0.03383
G1 X152.927 Y89.010 E0.03659
G1 X153.188 Y90.165 E0.03711
G1 X153.384 Y91.373 E0.03838
G1 X153.436 Y92.307 E0.02935
G1 X153.632 Y94.368 E0.06489
