; generated by Slic3r Prusa Edition 1.40.1+ on 2018-08-03 at 18:29:37

; 

; external perimeters extrusion width = 0.45mm
; perimeters extrusion width = 0.45mm
; infill extrusion width = 0.45mm
; solid infill extrusion width = 0.45mm
; top infill extrusion width = 0.40mm
; first layer extrusion width = 0.42mm

M107
M115 U3.3.1 ; tell printer latest fw version
M201 X1000 Y1000 Z1000 E9000 ; sets maximum accelerations, mm/sec^2
M203 X200 Y200 Z12 E120 ; sets maximum feedrates, mm/sec
M204 S1250 T1250 ; sets acceleration (S) and retract acceleration (T)
M205 X8 Y8 Z0.4 E1.5 ; sets the jerk limits, mm/sec
M205 S0 T0 ; sets the minimum extruding and travel feed rate, mm/sec
M83  ; extruder relative mode
M104 S215 ; set extruder temp
M140 S60 ; set bed temp
M190 S60 ; wait for bed temp
M109 S215 ; wait for extruder temp
G28 W ; home all without mesh bed level
G80 ; mesh bed leveling
G1 Y-3.0 F1000.0 ; go outside print area
G92 E0.0
G1 X60.0 E9.0  F1000.0 ; intro line
G1 X100.0 E12.5  F1000.0 ; intro line
G92 E0.0
M221 S95
M900 K30; Filament gcode
G21 ; set units to millimeters
G90 ; use absolute coordinates
M83 ; use relative distances for extrusion
;BEFORE_LAYER_CHANGE
G92 E0.0
;0.2


G1 E-0.80000 F2100.00000
G1 Z0.600 F10800.000
;AFTER_LAYER_CHANGE
;0.2
G1 X99.654 Y79.801
G1 Z0.200
G1 E0.80000 F2100.00000
M204 S1000
G1 F1800
G1 X100.690 Y78.661 E0.04828
G1 X101.617 Y77.777 E0.04016
G1 X102.544 Y77.031 E0.03731
G1 X104.613 Y75.746 E0.07638
G1 X106.760 Y74.826 E0.07324
G1 X109.101 Y74.238 E0.07568
G1 X111.553 Y74.026 E0.07716
G1 X113.060 Y74.091 E0.04730
G1 X114.992 Y74.338 E0.06107
G1 X116.898 Y74.781 E0.06135
G1 X118.164 Y75.190 E0.04174
G1 X119.514 Y75.763 E0.04598
G1 X120.719 Y76.434 E0.04325
G1 X121.846 Y77.234 E0.04334
G1 X122.737 Y78.018 E0.03719
G1 X123.676 Y79.021 E0.04309
G1 X125.002 Y80.702 E0.06712
G1 X125.802 Y81.978 E0.04722
G1 X126.489 Y83.354 E0.04824
G1 X126.960 Y84.608 E0.04200
G1 X127.548 Y86.808 E0.07142
G1 X128.025 Y89.745 E0.09329
G1 X130.333 Y119.977 E0.95064
G1 X130.270 Y122.222 E0.07043
G1 X129.969 Y124.189 E0.06238
G1 X129.385 Y126.286 E0.06825
G1 X128.486 Y128.404 E0.07215
G1 X127.785 Y129.674 E0.04550
G1 X126.964 Y130.890 E0.04599
G1 X125.508 Y132.632 E0.07117
G1 X123.828 Y134.172 E0.07148
G1 X122.230 Y135.210 E0.05974
G1 X120.372 Y135.972 E0.06297
G1 X118.432 Y136.365 E0.06205
G1 X117.341 Y136.426 E0.03426
G1 X107.423 Y136.373 E0.31099
G1 X106.281 Y136.194 E0.03622
G1 X105.069 Y135.861 E0.03942
G1 X104.012 Y135.434 E0.03573
G1 X102.909 Y134.839 E0.03930
G1 X101.321 Y133.635 E0.06249
G1 X99.928 Y132.255 E0.06146
G1 X98.673 Y130.692 E0.06287
G1 X97.706 Y129.171 E0.05651
G1 X96.800 Y127.330 E0.06434
G1 X96.175 Y125.590 E0.05798
G1 X95.719 Y123.693 E0.06116
G1 X95.509 Y122.100 E0.05039
G1 X94.770 Y94.727 E0.85858
G1 X94.880 Y92.847 E0.05902
G1 X95.158 Y90.790 E0.06508
G1 X95.609 Y88.552 E0.07159
G1 X96.426 Y85.582 E0.09659
G1 X97.198 Y83.758 E0.06210
G1 X98.260 Y81.770 E0.07066
G1 X98.915 Y80.756 E0.03785
G1 X99.617 Y79.848 E0.03599
G1 F8640
G1 X100.690 Y78.661 E-0.36936
G1 X101.617 Y77.777 E-0.29575
G1 X101.937 Y77.520 E-0.09489
G1 E-0.04000 F2100.00000
G1 Z0.800 F10800.000
G1 X98.526 Y112.183
G1 Z0.200
G1 E0.80000 F2100.00000
G1 F1800
G1 X97.728 Y110.154 E0.06835
G1 X97.465 Y108.093 E0.06516
G1 X97.518 Y106.616 E0.04634
G1 X97.546 Y106.442 E0.00552
G1 X97.116 Y104.782 E0.05378
G1 X97.040 Y104.538 E0.00799
G1 X96.813 Y103.999 E0.01836
G1 X96.507 Y103.085 E0.03021
G1 X96.158 Y101.834 E0.04073
G1 X95.841 Y100.554 E0.04133
G1 X95.665 Y99.553 E0.03188
G1 X95.602 Y98.867 E0.02159
G1 X95.497 Y98.151 E0.02269
G1 X95.466 Y97.731 E0.01320
G1 X95.343 Y97.076 E0.02091
G1 X95.231 Y95.974 E0.03472
G1 X95.238 Y94.305 E0.05232
G1 X95.421 Y92.387 E0.06044
G1 X95.445 Y91.764 E0.01954
G1 X95.580 Y90.635 E0.03565
G1 X95.909 Y88.987 E0.05268
G1 X96.310 Y87.712 E0.04191
G1 X96.398 Y87.115 E0.01892
G1 X96.683 Y86.024 E0.03535
G1 X97.107 Y84.884 E0.03816
G1 X97.643 Y83.805 E0.03777
G1 X98.314 Y82.777 E0.03850
G1 X98.652 Y82.358 E0.01688
G1 X99.091 Y81.643 E0.02630
G1 X99.653 Y80.834 E0.03088
G1 X100.510 Y79.794 E0.04225
G1 X101.462 Y78.823 E0.04264
G1 X102.784 Y77.706 E0.05426
G1 X103.847 Y76.971 E0.04054
G1 X104.968 Y76.337 E0.04035
G1 X106.161 Y75.791 E0.04115
G1 X107.385 Y75.356 E0.04075
G1 X109.170 Y74.941 E0.05746
G1 X110.728 Y74.764 E0.04915
G1 X112.278 Y74.734 E0.04861
G1 X113.668 Y74.826 E0.04370
G1 X115.088 Y75.034 E0.04498
G1 X116.525 Y75.376 E0.04633
G1 X117.945 Y75.842 E0.04687
G1 X119.228 Y76.408 E0.04395
G1 X120.469 Y77.117 E0.04480
G1 X121.618 Y77.957 E0.04464
G1 X122.651 Y78.894 E0.04372
G1 X123.765 Y80.108 E0.05166
G1 X124.508 Y81.023 E0.03696
G1 X125.404 Y82.276 E0.04830
G1 X126.133 Y83.638 E0.04844
G1 X126.612 Y84.876 E0.04162
G1 X126.973 Y86.118 E0.04056
G1 X127.592 Y89.501 E0.10780
G1 X127.662 Y90.346 E0.02659
G1 X127.748 Y91.022 E0.02138
G1 X127.834 Y92.552 E0.04803
G1 X127.840 Y93.625 E0.03364
G1 X127.774 Y94.685 E0.03331
G1 X127.660 Y95.660 E0.03079
G1 X127.332 Y97.227 E0.05020
G1 X127.016 Y98.260 E0.03386
G1 X126.669 Y99.528 E0.04122
G1 X126.082 Y101.096 E0.05250
G1 X126.287 Y101.837 E0.02410
G1 X126.411 Y102.442 E0.01936
G1 X126.629 Y102.876 E0.01523
G1 X127.389 Y105.017 E0.07123
G1 X127.800 Y106.735 E0.05539
G1 X128.101 Y108.926 E0.06936
G1 X128.038 Y110.442 E0.04756
G1 X128.034 Y111.556 E0.03491
G1 X127.811 Y113.197 E0.05194
G1 X128.027 Y113.614 E0.01471
G1 X128.655 Y115.187 E0.05311
G1 X129.129 Y116.857 E0.05444
G1 X129.428 Y118.572 E0.05458
G1 X129.547 Y120.468 E0.05957
G1 X129.447 Y122.392 E0.06039
G1 X129.129 Y124.276 E0.05993
G1 X128.559 Y126.220 E0.06351
G1 X127.901 Y127.788 E0.05331
G1 X127.077 Y129.296 E0.05389
G1 X126.004 Y130.836 E0.05883
G1 X124.717 Y132.296 E0.06104
G1 X122.632 Y134.043 E0.08530
G1 X120.469 Y135.101 E0.07548
G1 X118.147 Y135.624 E0.07462
G1 X116.351 Y135.629 E0.05633
G1 X114.557 Y135.322 E0.05705
G1 X112.945 Y134.634 E0.05495
G1 X110.580 Y135.465 E0.07860
G1 X107.460 Y135.597 E0.09792
G1 X104.662 Y134.865 E0.09067
G1 X103.007 Y133.947 E0.05935
G1 X101.594 Y132.803 E0.05698
G1 X100.311 Y131.479 E0.05782
G1 X99.156 Y129.985 E0.05922
G1 X98.231 Y128.468 E0.05569
G1 X97.456 Y126.820 E0.05710
G1 X96.861 Y125.079 E0.05769
G1 X96.441 Y123.163 E0.06152
G1 X96.264 Y121.504 E0.05231
G1 X96.257 Y119.756 E0.05481
G1 X96.435 Y118.009 E0.05503
G1 X96.812 Y116.228 E0.05708
G1 X97.445 Y114.341 E0.06240
G1 X98.170 Y112.779 E0.05402
G1 X98.496 Y112.234 E0.01989
G1 X98.946 Y112.216 F10800.000
G1 F1800
G1 X98.099 Y110.083 E0.07198
G1 X97.841 Y108.061 E0.06392
G1 X97.894 Y106.644 E0.04446
G1 X97.932 Y106.427 E0.00689
G1 X97.479 Y104.678 E0.05665
G1 X97.395 Y104.408 E0.00886
G1 X97.168 Y103.872 E0.01826
G1 X96.869 Y102.979 E0.02953
G1 X96.523 Y101.740 E0.04032
G1 X96.208 Y100.470 E0.04104
G1 X96.038 Y99.495 E0.03102
G1 X95.976 Y98.823 E0.02118
G1 X95.871 Y98.103 E0.02279
G1 X95.841 Y97.682 E0.01324
G1 X95.717 Y97.029 E0.02083
G1 X95.607 Y95.946 E0.03414
G1 X95.614 Y94.333 E0.05058
G1 X95.797 Y92.411 E0.06052
G1 X95.820 Y91.801 E0.01916
G1 X95.953 Y90.687 E0.03518
G1 X96.276 Y89.071 E0.05166
G1 X96.679 Y87.797 E0.04191
G1 X96.765 Y87.200 E0.01890
G1 X97.039 Y86.146 E0.03413
G1 X97.449 Y85.042 E0.03692
G1 X97.975 Y83.983 E0.03710
G1 X98.624 Y82.992 E0.03715
G1 X98.961 Y82.576 E0.01677
G1 X99.403 Y81.854 E0.02656
G1 X99.958 Y81.056 E0.03046
G1 X100.796 Y80.040 E0.04128
G1 X101.725 Y79.094 E0.04160
G1 X103.006 Y78.011 E0.05259
G1 X104.041 Y77.295 E0.03945
G1 X105.146 Y76.670 E0.03982
G1 X106.310 Y76.137 E0.04013
G1 X107.501 Y75.715 E0.03963
G1 X109.224 Y75.314 E0.05545
G1 X110.744 Y75.140 E0.04798
G1 X112.261 Y75.111 E0.04758
G1 X113.621 Y75.200 E0.04274
G1 X115.009 Y75.403 E0.04397
G1 X116.416 Y75.737 E0.04532
G1 X117.802 Y76.191 E0.04576
G1 X119.050 Y76.740 E0.04274
G1 X120.255 Y77.428 E0.04350
G1 X121.373 Y78.243 E0.04337
G1 X122.379 Y79.155 E0.04260
G1 X123.483 Y80.359 E0.05121
G1 X124.205 Y81.247 E0.03589
G1 X125.077 Y82.466 E0.04698
G1 X125.786 Y83.786 E0.04698
G1 X126.253 Y84.990 E0.04049
G1 X126.604 Y86.196 E0.03940
G1 X127.219 Y89.559 E0.10720
G1 X127.287 Y90.385 E0.02598
G1 X127.373 Y91.063 E0.02144
G1 X127.458 Y92.568 E0.04726
G1 X127.463 Y93.620 E0.03299
G1 X127.398 Y94.656 E0.03255
G1 X127.289 Y95.591 E0.02951
G1 X126.964 Y97.141 E0.04966
G1 X126.654 Y98.155 E0.03323
G1 X126.308 Y99.418 E0.04108
G1 X125.804 Y100.734 E0.04418
G1 X125.691 Y101.095 E0.01184
G1 X125.922 Y101.931 E0.02721
G1 X126.051 Y102.567 E0.02035
G1 X126.277 Y103.014 E0.01570
G1 X127.030 Y105.134 E0.07052
G1 X127.431 Y106.814 E0.05416
G1 X127.723 Y108.928 E0.06691
G1 X127.661 Y110.434 E0.04726
G1 X127.657 Y111.542 E0.03474
G1 X127.421 Y113.265 E0.05453
G1 X127.680 Y113.763 E0.01760
G1 X128.295 Y115.299 E0.05189
G1 X128.764 Y116.951 E0.05382
G1 X129.055 Y118.626 E0.05332
G1 X129.170 Y120.459 E0.05759
G1 X129.071 Y122.361 E0.05971
G1 X128.759 Y124.202 E0.05856
G1 X128.207 Y126.084 E0.06148
G1 X127.557 Y127.633 E0.05267
G1 X126.751 Y129.106 E0.05266
G1 X125.714 Y130.594 E0.05686
G1 X124.443 Y132.036 E0.06027
G1 X122.444 Y133.715 E0.08185
G1 X120.363 Y134.738 E0.07271
G1 X118.125 Y135.247 E0.07197
G1 X116.366 Y135.252 E0.05515
G1 X114.644 Y134.954 E0.05481
G1 X112.958 Y134.229 E0.05752
G1 X110.534 Y135.090 E0.08065
G1 X107.527 Y135.225 E0.09438
G1 X104.781 Y134.506 E0.08901
G1 X103.205 Y133.626 E0.05660
G1 X101.841 Y132.518 E0.05511
G1 X100.589 Y131.225 E0.05643
G1 X99.461 Y129.762 E0.05791
G1 X98.559 Y128.281 E0.05439
G1 X97.802 Y126.669 E0.05582
G1 X97.221 Y124.968 E0.05638
G1 X96.811 Y123.092 E0.06018
G1 X96.640 Y121.474 E0.05104
G1 X96.634 Y119.764 E0.05359
G1 X96.809 Y118.058 E0.05378
G1 X97.179 Y116.317 E0.05580
G1 X97.791 Y114.491 E0.06040
G1 X98.508 Y112.947 E0.05337
G1 X98.915 Y112.268 E0.02482
G1 X99.366 Y112.250 F10800.000
G1 F1800
G1 X98.470 Y110.011 E0.07561
G1 X98.217 Y108.029 E0.06266
G1 X98.271 Y106.673 E0.04254
G1 X98.318 Y106.414 E0.00825
G1 X97.842 Y104.574 E0.05959
G1 X97.749 Y104.278 E0.00973
G1 X97.523 Y103.745 E0.01815
G1 X97.231 Y102.873 E0.02884
G1 X96.887 Y101.642 E0.04008
G1 X96.576 Y100.386 E0.04057
G1 X96.413 Y99.453 E0.02968
G1 X96.351 Y98.778 E0.02125
G1 X96.245 Y98.056 E0.02289
G1 X96.215 Y97.633 E0.01328
G1 X96.091 Y96.983 E0.02075
G1 X95.983 Y95.918 E0.03357
G1 X95.990 Y94.360 E0.04884
G1 X96.174 Y92.436 E0.06060
G1 X96.195 Y91.838 E0.01877
G1 X96.327 Y90.739 E0.03469
G1 X96.644 Y89.156 E0.05064
G1 X97.048 Y87.881 E0.04193
G1 X97.133 Y87.284 E0.01889
G1 X97.396 Y86.268 E0.03290
G1 X97.799 Y85.183 E0.03630
G1 X98.308 Y84.161 E0.03579
G1 X98.934 Y83.207 E0.03580
G1 X99.269 Y82.794 E0.01666
G1 X99.716 Y82.064 E0.02683
G1 X100.263 Y81.278 E0.03004
G1 X101.081 Y80.287 E0.04030
G1 X101.988 Y79.364 E0.04056
G1 X103.229 Y78.316 E0.05093
G1 X104.234 Y77.619 E0.03836
G1 X105.311 Y77.009 E0.03879
G1 X106.444 Y76.490 E0.03908
G1 X107.617 Y76.074 E0.03903
G1 X109.277 Y75.687 E0.05345
G1 X110.760 Y75.517 E0.04680
G1 X112.245 Y75.488 E0.04655
G1 X113.574 Y75.574 E0.04178
G1 X114.930 Y75.772 E0.04296
G1 X116.306 Y76.098 E0.04432
G1 X117.659 Y76.540 E0.04465
G1 X118.872 Y77.073 E0.04153
G1 X120.042 Y77.739 E0.04221
G1 X121.127 Y78.529 E0.04209
G1 X122.107 Y79.417 E0.04146
G1 X123.202 Y80.609 E0.05076
G1 X123.902 Y81.471 E0.03482
G1 X124.751 Y82.655 E0.04567
G1 X125.438 Y83.933 E0.04551
G1 X125.893 Y85.103 E0.03936
G1 X126.235 Y86.273 E0.03822
G1 X126.847 Y89.617 E0.10659
G1 X126.912 Y90.424 E0.02536
G1 X126.998 Y91.104 E0.02150
G1 X127.081 Y92.584 E0.04649
G1 X127.086 Y93.616 E0.03233
G1 X127.022 Y94.628 E0.03179
G1 X126.918 Y95.522 E0.02824
G1 X126.597 Y97.055 E0.04911
G1 X126.292 Y98.050 E0.03260
G1 X125.947 Y99.310 E0.04097
G1 X125.448 Y100.610 E0.04368
G1 X125.298 Y101.088 E0.01570
G1 X125.556 Y102.025 E0.03049
G1 X125.692 Y102.693 E0.02137
G1 X125.926 Y103.152 E0.01616
G1 X126.671 Y105.250 E0.06981
G1 X127.062 Y106.892 E0.05293
G1 X127.346 Y108.929 E0.06448
G1 X127.284 Y110.425 E0.04695
G1 X127.280 Y111.528 E0.03457
G1 X127.031 Y113.333 E0.05713
G1 X127.334 Y113.912 E0.02049
G1 X127.935 Y115.412 E0.05067
G1 X128.394 Y117.025 E0.05258
G1 X128.681 Y118.681 E0.05269
G1 X128.793 Y120.451 E0.05561
G1 X128.695 Y122.330 E0.05902
G1 X128.389 Y124.128 E0.05718
G1 X127.855 Y125.948 E0.05945
G1 X127.213 Y127.478 E0.05203
G1 X126.425 Y128.916 E0.05142
G1 X125.424 Y130.353 E0.05490
G1 X124.170 Y131.776 E0.05949
G1 X122.257 Y133.387 E0.07841
G1 X120.257 Y134.375 E0.06993
G1 X118.102 Y134.870 E0.06933
G1 X116.414 Y134.877 E0.05294
G1 X114.730 Y134.586 E0.05357
G1 X112.971 Y133.823 E0.06011
G1 X110.488 Y134.714 E0.08273
G1 X107.595 Y134.853 E0.09081
G1 X104.900 Y134.147 E0.08733
G1 X103.405 Y133.305 E0.05382
G1 X102.088 Y132.232 E0.05325
G1 X100.868 Y130.970 E0.05505
G1 X99.766 Y129.541 E0.05659
G1 X98.886 Y128.094 E0.05309
G1 X98.148 Y126.519 E0.05454
G1 X97.581 Y124.856 E0.05507
G1 X97.182 Y123.022 E0.05885
G1 X97.016 Y121.444 E0.04977
G1 X97.011 Y119.774 E0.05237
G1 X97.183 Y118.107 E0.05253
G1 X97.545 Y116.406 E0.05452
G1 X98.137 Y114.640 E0.05841
G1 X98.846 Y113.115 E0.05272
G1 X99.335 Y112.302 E0.02976
G1 F8640
G1 X98.470 Y110.011 E-0.56533
G1 X98.363 Y109.175 E-0.19467
G1 E-0.04000 F2100.00000
G1 Z0.800 F10800.000
G1 X112.923 Y133.390
G1 Z0.200
G1 E0.80000 F2100.00000
G1 F1800
G1 X112.669 Y133.544 E0.00930
G1 X110.441 Y134.339 E0.07417
G1 X107.662 Y134.481 E0.08724
G1 X105.020 Y133.789 E0.08563
G1 X103.605 Y132.985 E0.05102
G1 X102.352 Y131.962 E0.05073
G1 X101.146 Y130.716 E0.05437
G1 X100.071 Y129.319 E0.05526
G1 X99.214 Y127.907 E0.05180
G1 X98.494 Y126.368 E0.05326
G1 X97.942 Y124.745 E0.05376
G1 X97.553 Y122.953 E0.05751
G1 X97.392 Y121.414 E0.04849
G1 X97.389 Y119.783 E0.05116
G1 X97.557 Y118.156 E0.05128
G1 X97.912 Y116.496 E0.05323
G1 X98.484 Y114.789 E0.05643
G1 X99.183 Y113.283 E0.05207
G1 X99.786 Y112.283 E0.03660
G1 X98.840 Y109.939 E0.07927
G1 X98.594 Y108.028 E0.06041
G1 X98.647 Y106.703 E0.04157
G1 X98.704 Y106.403 E0.00959
G1 X98.204 Y104.471 E0.06257
G1 X98.103 Y104.148 E0.01061
G1 X97.879 Y103.618 E0.01804
G1 X97.593 Y102.767 E0.02816
G1 X97.251 Y101.543 E0.03984
G1 X96.944 Y100.301 E0.04010
G1 X96.787 Y99.411 E0.02833
G1 X96.726 Y98.734 E0.02133
G1 X96.620 Y98.009 E0.02298
G1 X96.590 Y97.584 E0.01333
G1 X96.465 Y96.937 E0.02068
G1 X96.359 Y95.890 E0.03299
G1 X96.366 Y94.387 E0.04710
G1 X96.550 Y92.460 E0.06070
G1 X96.571 Y91.875 E0.01838
G1 X96.700 Y90.791 E0.03421
G1 X97.012 Y89.240 E0.04962
G1 X97.417 Y87.964 E0.04196
G1 X97.501 Y87.368 E0.01889
G1 X97.753 Y86.390 E0.03166
G1 X98.141 Y85.342 E0.03503
G1 X98.640 Y84.340 E0.03511
G1 X99.244 Y83.422 E0.03443
G1 X99.578 Y83.013 E0.01656
G1 X100.029 Y82.275 E0.02711
G1 X100.568 Y81.500 E0.02962
G1 X101.367 Y80.533 E0.03931
G1 X102.251 Y79.635 E0.03952
G1 X103.451 Y78.621 E0.04927
G1 X104.442 Y77.933 E0.03781
G1 X105.489 Y77.341 E0.03773
G1 X106.593 Y76.836 E0.03806
G1 X107.733 Y76.433 E0.03791
G1 X109.331 Y76.061 E0.05145
G1 X110.777 Y75.894 E0.04563
G1 X112.229 Y75.865 E0.04552
G1 X113.528 Y75.948 E0.04082
G1 X114.852 Y76.141 E0.04195
G1 X116.196 Y76.458 E0.04332
G1 X117.516 Y76.890 E0.04354
G1 X118.694 Y77.405 E0.04032
G1 X119.828 Y78.050 E0.04090
G1 X120.897 Y78.828 E0.04144
G1 X121.835 Y79.678 E0.03970
G1 X122.920 Y80.860 E0.05031
G1 X123.599 Y81.696 E0.03376
G1 X124.425 Y82.845 E0.04436
G1 X125.091 Y84.081 E0.04403
G1 X125.534 Y85.217 E0.03823
G1 X125.866 Y86.351 E0.03704
G1 X126.474 Y89.676 E0.10598
G1 X126.537 Y90.462 E0.02474
G1 X126.623 Y91.145 E0.02157
G1 X126.704 Y92.600 E0.04571
G1 X126.709 Y93.611 E0.03168
G1 X126.646 Y94.599 E0.03104
G1 X126.548 Y95.454 E0.02698
G1 X126.230 Y96.970 E0.04857
G1 X125.930 Y97.944 E0.03197
G1 X125.585 Y99.201 E0.04085
G1 X125.091 Y100.486 E0.04317
G1 X124.905 Y101.081 E0.01955
G1 X125.191 Y102.119 E0.03376
G1 X125.333 Y102.819 E0.02240
G1 X125.575 Y103.290 E0.01661
G1 X126.313 Y105.367 E0.06908
G1 X126.693 Y106.971 E0.05169
G1 X126.968 Y108.931 E0.06205
G1 X126.906 Y110.417 E0.04666
G1 X126.905 Y111.490 E0.03364
G1 X126.680 Y113.150 E0.05252
G1 X126.623 Y113.367 E0.00704
G1 X126.988 Y114.061 E0.02458
G1 X127.575 Y115.525 E0.04944
G1 X128.029 Y117.118 E0.05195
