; generated by Slic3r Prusa Edition 1.40.1+ on 2018-08-03 at 15:08:28

; 

; external perimeters extrusion width = 0.45mm
; perimeters extrusion width = 0.45mm
; infill extrusion width = 0.45mm
; solid infill extrusion width = 0.45mm
; top infill extrusion width = 0.40mm
; first layer extrusion width = 0.42mm

M107
M115 U3.3.1 ; tell printer latest fw version
M201 X1000 Y1000 Z1000 E9000 ; sets maximum accelerations, mm/sec^2
M203 X200 Y200 Z12 E120 ; sets maximum feedrates, mm/sec
M204 S1250 T1250 ; sets acceleration (S) and retract acceleration (T)
M205 X8 Y8 Z0.4 E1.5 ; sets the jerk limits, mm/sec
M205 S0 T0 ; sets the minimum extruding and travel feed rate, mm/sec
M83  ; extruder relative mode
M104 S215 ; set extruder temp
M140 S60 ; set bed temp
M190 S60 ; wait for bed temp
M109 S215 ; wait for extruder temp
G28 W ; home all without mesh bed level
G80 ; mesh bed leveling
G1 Y-3.0 F1000.0 ; go outside print area
G92 E0.0
G1 X60.0 E9.0  F1000.0 ; intro line
G1 X100.0 E12.5  F1000.0 ; intro line
G92 E0.0
M221 S95
M900 K30; Filament gcode
G21 ; set units to millimeters
G90 ; use absolute coordinates
M83 ; use relative distances for extrusion
;BEFORE_LAYER_CHANGE
G92 E0.0
;0.2


G1 E-0.80000 F2100.00000
G1 Z0.600 F10800.000
;AFTER_LAYER_CHANGE
;0.2
G1 X111.096 Y80.756
G1 Z0.200
G1 E0.80000 F2100.00000
M204 S1000
G1 F1800
G1 X111.835 Y79.801 E0.03787
G1 X112.871 Y78.661 E0.04828
G1 X113.798 Y77.777 E0.04016
G1 X114.724 Y77.031 E0.03731
G1 X116.794 Y75.746 E0.07638
G1 X118.948 Y74.823 E0.07348
G1 X121.282 Y74.238 E0.07544
G1 X123.734 Y74.026 E0.07716
G1 X125.241 Y74.091 E0.04730
G1 X127.173 Y74.338 E0.06107
G1 X129.079 Y74.781 E0.06135
G1 X130.345 Y75.190 E0.04174
G1 X131.695 Y75.763 E0.04598
G1 X132.900 Y76.434 E0.04325
G1 X134.027 Y77.234 E0.04334
G1 X134.918 Y78.018 E0.03719
G1 X135.857 Y79.021 E0.04309
G1 X137.182 Y80.702 E0.06712
G1 X137.983 Y81.978 E0.04722
G1 X138.670 Y83.354 E0.04824
G1 X139.141 Y84.608 E0.04200
G1 X139.729 Y86.808 E0.07141
G1 X140.206 Y89.745 E0.09329
G1 X142.509 Y119.977 E0.95062
G1 X142.445 Y122.221 E0.07042
G1 X142.144 Y124.188 E0.06236
G1 X141.561 Y126.284 E0.06823
G1 X140.662 Y128.401 E0.07213
G1 X139.961 Y129.672 E0.04548
G1 X139.141 Y130.887 E0.04597
G1 X137.685 Y132.628 E0.07115
G1 X136.005 Y134.168 E0.07146
G1 X134.406 Y135.206 E0.05977
G1 X132.547 Y135.968 E0.06301
G1 X130.607 Y136.361 E0.06208
G1 X129.515 Y136.422 E0.03426
G1 X119.606 Y136.369 E0.31070
G1 X118.457 Y136.187 E0.03646
G1 X117.248 Y135.855 E0.03931
G1 X116.185 Y135.424 E0.03598
G1 X115.088 Y134.832 E0.03909
G1 X113.500 Y133.626 E0.06252
G1 X112.108 Y132.246 E0.06144
G1 X110.854 Y130.682 E0.06285
G1 X109.887 Y129.162 E0.05649
G1 X108.986 Y127.328 E0.06407
G1 X108.361 Y125.588 E0.05796
G1 X107.907 Y123.700 E0.06089
G1 X107.695 Y122.100 E0.05062
G1 X106.951 Y94.727 E0.85858
G1 X107.061 Y92.847 E0.05902
G1 X107.339 Y90.790 E0.06508
G1 X107.790 Y88.552 E0.07159
G1 X108.605 Y85.589 E0.09635
G1 X109.379 Y83.758 E0.06235
G1 X110.441 Y81.770 E0.07066
G1 X111.063 Y80.807 E0.03597
G1 F8640
G1 X111.835 Y79.801 E-0.29273
G1 X112.871 Y78.661 E-0.35555
G1 X113.221 Y78.327 E-0.11173
G1 E-0.04000 F2100.00000
G1 Z0.800 F10800.000
G1 X110.714 Y112.199
G1 Z0.200
G1 E0.80000 F2100.00000
G1 F1800
G1 X109.909 Y110.154 E0.06890
G1 X109.646 Y108.093 E0.06516
G1 X109.699 Y106.616 E0.04634
G1 X109.727 Y106.443 E0.00550
G1 X109.292 Y104.765 E0.05433
G1 X109.188 Y104.433 E0.01090
G1 X108.791 Y103.422 E0.03406
G1 X108.355 Y101.895 E0.04978
G1 X107.945 Y100.185 E0.05514
G1 X107.690 Y98.262 E0.06082
G1 X107.650 Y97.762 E0.01573
G1 X107.556 Y97.287 E0.01521
G1 X107.444 Y96.407 E0.02779
G1 X107.403 Y94.576 E0.05742
G1 X107.461 Y93.752 E0.02591
G1 X107.528 Y93.220 E0.01681
G1 X107.603 Y92.342 E0.02764
G1 X107.625 Y91.774 E0.01783
G1 X107.752 Y90.693 E0.03410
G1 X108.088 Y88.993 E0.05434
G1 X108.493 Y87.709 E0.04223
G1 X108.572 Y87.158 E0.01744
G1 X108.851 Y86.067 E0.03531
G1 X109.360 Y84.721 E0.04512
G1 X110.045 Y83.434 E0.04572
G1 X110.739 Y82.504 E0.03639
G1 X111.140 Y81.845 E0.02419
G1 X111.857 Y80.805 E0.03961
G1 X112.838 Y79.632 E0.04792
G1 X113.927 Y78.560 E0.04793
G1 X115.269 Y77.483 E0.05394
G1 X116.842 Y76.498 E0.05820
G1 X118.136 Y75.875 E0.04502
G1 X119.465 Y75.390 E0.04435
G1 X120.596 Y75.087 E0.03671
G1 X121.736 Y74.883 E0.03631
G1 X123.113 Y74.751 E0.04338
G1 X124.476 Y74.736 E0.04273
G1 X125.963 Y74.838 E0.04673
G1 X127.435 Y75.068 E0.04671
G1 X128.883 Y75.426 E0.04680
G1 X130.311 Y75.914 E0.04731
G1 X131.598 Y76.504 E0.04438
G1 X132.822 Y77.229 E0.04462
G1 X133.948 Y78.080 E0.04426
G1 X134.975 Y79.040 E0.04408
G1 X136.099 Y80.286 E0.05262
G1 X136.670 Y80.998 E0.02860
G1 X137.354 Y81.913 E0.03582
G1 X138.402 Y83.834 E0.06860
G1 X138.829 Y84.981 E0.03839
G1 X139.162 Y86.150 E0.03810
G1 X139.773 Y89.502 E0.10682
G1 X139.843 Y90.346 E0.02656
G1 X139.929 Y91.022 E0.02138
G1 X140.015 Y92.552 E0.04803
G1 X140.021 Y93.625 E0.03364
G1 X139.955 Y94.685 E0.03331
G1 X139.841 Y95.660 E0.03079
G1 X139.513 Y97.227 E0.05020
G1 X139.197 Y98.260 E0.03386
G1 X138.850 Y99.528 E0.04122
G1 X138.263 Y101.096 E0.05250
G1 X138.468 Y101.837 E0.02410
G1 X138.592 Y102.442 E0.01936
G1 X138.810 Y102.877 E0.01527
G1 X139.582 Y105.058 E0.07253
G1 X139.984 Y106.751 E0.05457
G1 X140.278 Y108.851 E0.06646
G1 X140.219 Y110.438 E0.04980
G1 X140.215 Y111.554 E0.03498
G1 X139.987 Y113.215 E0.05259
G1 X140.207 Y113.640 E0.01499
G1 X140.836 Y115.225 E0.05348
G1 X141.318 Y116.945 E0.05601
G1 X141.619 Y118.770 E0.05798
G1 X141.717 Y120.565 E0.05637
G1 X141.618 Y122.376 E0.05687
G1 X141.311 Y124.219 E0.05858
G1 X140.747 Y126.165 E0.06353
G1 X140.137 Y127.643 E0.05011
G1 X139.379 Y129.072 E0.05073
G1 X138.270 Y130.708 E0.06197
G1 X136.949 Y132.228 E0.06315
G1 X134.860 Y134.000 E0.08588
G1 X132.429 Y135.140 E0.08419
G1 X130.289 Y135.617 E0.06875
G1 X128.312 Y135.599 E0.06199
G1 X126.489 Y135.236 E0.05826
G1 X125.146 Y134.665 E0.04578
G1 X122.739 Y135.463 E0.07951
G1 X119.679 Y135.592 E0.09604
G1 X117.111 Y134.956 E0.08295
G1 X115.338 Y134.031 E0.06270
G1 X113.871 Y132.875 E0.05856
G1 X112.564 Y131.543 E0.05851
G1 X111.424 Y130.089 E0.05792
G1 X110.460 Y128.532 E0.05744
G1 X109.657 Y126.837 E0.05879
G1 X109.051 Y125.071 E0.05856
G1 X108.649 Y123.253 E0.05837
G1 X108.461 Y121.579 E0.05282
G1 X108.447 Y119.827 E0.05494
G1 X108.620 Y118.061 E0.05563
G1 X109.020 Y116.175 E0.06046
G1 X109.630 Y114.362 E0.05998
G1 X110.330 Y112.844 E0.05241
G1 X110.683 Y112.250 E0.02165
G1 X111.133 Y112.232 F10800.000
G1 F1800
G1 X110.280 Y110.083 E0.07251
G1 X110.022 Y108.061 E0.06391
G1 X110.075 Y106.644 E0.04446
G1 X110.113 Y106.428 E0.00688
G1 X109.655 Y104.661 E0.05721
G1 X109.544 Y104.308 E0.01163
G1 X109.151 Y103.310 E0.03363
G1 X108.719 Y101.796 E0.04937
G1 X108.314 Y100.107 E0.05445
G1 X108.065 Y98.218 E0.05974
G1 X108.024 Y97.710 E0.01598
G1 X107.929 Y97.232 E0.01529
G1 X107.821 Y96.389 E0.02666
G1 X107.780 Y94.594 E0.05628
G1 X107.837 Y93.784 E0.02547
G1 X107.903 Y93.260 E0.01656
G1 X107.979 Y92.365 E0.02816
G1 X108.000 Y91.810 E0.01740
G1 X108.125 Y90.745 E0.03363
G1 X108.456 Y89.077 E0.05332
G1 X108.862 Y87.793 E0.04223
G1 X108.940 Y87.241 E0.01747
G1 X109.207 Y86.190 E0.03399
G1 X109.708 Y84.866 E0.04440
G1 X110.371 Y83.625 E0.04412
G1 X111.052 Y82.715 E0.03562
G1 X111.454 Y82.054 E0.02425
G1 X112.163 Y81.026 E0.03916
G1 X113.121 Y79.881 E0.04681
G1 X114.185 Y78.836 E0.04677
G1 X115.496 Y77.785 E0.05270
G1 X117.016 Y76.833 E0.05620
G1 X118.274 Y76.226 E0.04382
G1 X119.571 Y75.752 E0.04329
G1 X120.670 Y75.456 E0.03569
G1 X121.779 Y75.257 E0.03533
G1 X123.125 Y75.128 E0.04240
G1 X124.458 Y75.112 E0.04177
G1 X125.913 Y75.212 E0.04574
G1 X127.352 Y75.436 E0.04568
G1 X128.770 Y75.785 E0.04577
G1 X130.163 Y76.261 E0.04616
G1 X131.414 Y76.834 E0.04315
G1 X132.603 Y77.537 E0.04332
G1 X133.698 Y78.362 E0.04299
G1 X134.701 Y79.299 E0.04301
G1 X135.809 Y80.527 E0.05186
G1 X136.370 Y81.226 E0.02811
G1 X137.043 Y82.128 E0.03530
G1 X138.053 Y83.978 E0.06609
G1 X138.468 Y85.092 E0.03727
G1 X138.793 Y86.227 E0.03700
G1 X139.400 Y89.560 E0.10623
G1 X139.468 Y90.385 E0.02595
G1 X139.554 Y91.063 E0.02144
G1 X139.639 Y92.568 E0.04726
G1 X139.644 Y93.620 E0.03299
G1 X139.579 Y94.656 E0.03255
G1 X139.470 Y95.591 E0.02951
G1 X139.145 Y97.141 E0.04966
G1 X138.835 Y98.155 E0.03323
G1 X138.489 Y99.418 E0.04108
G1 X137.985 Y100.734 E0.04418
G1 X137.872 Y101.095 E0.01184
G1 X138.103 Y101.931 E0.02721
G1 X138.232 Y102.567 E0.02036
G1 X138.459 Y103.015 E0.01573
G1 X139.223 Y105.174 E0.07182
G1 X139.615 Y106.830 E0.05335
G1 X139.900 Y108.853 E0.06408
G1 X139.842 Y110.430 E0.04948
G1 X139.838 Y111.540 E0.03478
G1 X139.597 Y113.283 E0.05518
G1 X139.860 Y113.788 E0.01786
G1 X140.476 Y115.337 E0.05224
G1 X140.947 Y117.017 E0.05473
G1 X141.246 Y118.821 E0.05733
G1 X141.339 Y120.575 E0.05507
G1 X141.242 Y122.345 E0.05558
G1 X140.941 Y124.146 E0.05726
G1 X140.395 Y126.031 E0.06153
G1 X139.792 Y127.490 E0.04950
G1 X139.051 Y128.886 E0.04955
G1 X137.964 Y130.487 E0.06066
G1 X136.673 Y131.970 E0.06166
G1 X134.677 Y133.669 E0.08221
G1 X132.287 Y134.790 E0.08275
G1 X130.270 Y135.240 E0.06481
G1 X128.368 Y135.226 E0.05964
G1 X126.583 Y134.870 E0.05707
G1 X125.111 Y134.239 E0.05022
G1 X124.926 Y134.341 E0.00662
G1 X122.696 Y135.088 E0.07374
G1 X119.743 Y135.219 E0.09267
G1 X117.224 Y134.596 E0.08137
G1 X115.529 Y133.706 E0.06002
G1 X114.115 Y132.587 E0.05655
G1 X112.840 Y131.287 E0.05708
G1 X111.728 Y129.865 E0.05661
G1 X110.787 Y128.342 E0.05613
G1 X110.002 Y126.686 E0.05747
G1 X109.412 Y124.959 E0.05723
G1 X109.019 Y123.182 E0.05707
G1 X108.837 Y121.547 E0.05157
G1 X108.824 Y119.834 E0.05371
G1 X108.994 Y118.109 E0.05436
G1 X109.387 Y116.264 E0.05913
G1 X109.977 Y114.510 E0.05801
G1 X110.669 Y113.011 E0.05178
G1 X111.103 Y112.284 E0.02655
G1 X111.553 Y112.265 F10800.000
G1 F1800
G1 X110.651 Y110.011 E0.07613
G1 X110.398 Y108.029 E0.06266
G1 X110.452 Y106.673 E0.04254
G1 X110.499 Y106.415 E0.00824
G1 X110.018 Y104.558 E0.06015
G1 X109.900 Y104.182 E0.01235
G1 X109.511 Y103.197 E0.03319
G1 X109.083 Y101.696 E0.04895
G1 X108.683 Y100.031 E0.05369
G1 X108.557 Y98.971 E0.03348
G1 X108.439 Y98.168 E0.02544
G1 X108.398 Y97.658 E0.01604
G1 X108.302 Y97.177 E0.01538
G1 X108.197 Y96.370 E0.02551
G1 X108.157 Y94.612 E0.05514
G1 X108.213 Y93.815 E0.02503
G1 X108.278 Y93.299 E0.01631
G1 X108.356 Y92.387 E0.02869
G1 X108.375 Y91.846 E0.01697
G1 X108.499 Y90.796 E0.03315
G1 X108.824 Y89.161 E0.05228
G1 X109.231 Y87.876 E0.04226
G1 X109.308 Y87.323 E0.01750
G1 X109.564 Y86.313 E0.03267
G1 X110.047 Y85.033 E0.04291
G1 X110.696 Y83.815 E0.04327
G1 X111.365 Y82.927 E0.03484
G1 X111.767 Y82.264 E0.02433
G1 X112.468 Y81.248 E0.03871
G1 X113.392 Y80.144 E0.04513
G1 X114.442 Y79.111 E0.04618
G1 X115.723 Y78.086 E0.05145
G1 X117.189 Y77.168 E0.05421
G1 X118.413 Y76.577 E0.04262
G1 X119.677 Y76.114 E0.04222
G1 X120.745 Y75.826 E0.03468
G1 X121.823 Y75.632 E0.03435
G1 X123.138 Y75.505 E0.04142
G1 X124.440 Y75.489 E0.04081
G1 X125.863 Y75.586 E0.04474
G1 X127.270 Y75.804 E0.04464
G1 X128.656 Y76.145 E0.04474
G1 X130.015 Y76.608 E0.04502
G1 X131.231 Y77.163 E0.04192
G1 X132.385 Y77.845 E0.04202
G1 X133.448 Y78.645 E0.04172
G1 X134.426 Y79.557 E0.04194
G1 X135.518 Y80.767 E0.05110
G1 X136.070 Y81.454 E0.02762
G1 X136.733 Y82.343 E0.03477
G1 X137.705 Y84.123 E0.06357
G1 X138.108 Y85.203 E0.03616
G1 X138.423 Y86.304 E0.03589
G1 X139.028 Y89.618 E0.10564
G1 X139.093 Y90.424 E0.02534
G1 X139.179 Y91.104 E0.02150
G1 X139.262 Y92.584 E0.04649
G1 X139.267 Y93.616 E0.03233
G1 X139.203 Y94.628 E0.03179
G1 X139.099 Y95.522 E0.02824
G1 X138.778 Y97.055 E0.04911
G1 X138.473 Y98.050 E0.03260
G1 X138.127 Y99.310 E0.04097
G1 X137.629 Y100.610 E0.04368
G1 X137.479 Y101.088 E0.01570
G1 X137.737 Y102.025 E0.03049
G1 X137.873 Y102.693 E0.02137
G1 X138.107 Y103.153 E0.01618
G1 X138.864 Y105.290 E0.07110
G1 X139.246 Y106.908 E0.05212
G1 X139.523 Y108.856 E0.06169
G1 X139.464 Y110.423 E0.04915
G1 X139.461 Y111.526 E0.03458
G1 X139.207 Y113.351 E0.05777
G1 X139.514 Y113.937 E0.02075
G1 X140.115 Y115.448 E0.05101
G1 X140.577 Y117.089 E0.05344
G1 X140.872 Y118.872 E0.05667
G1 X140.962 Y120.585 E0.05376
G1 X140.866 Y122.313 E0.05429
G1 X140.571 Y124.073 E0.05594
G1 X140.042 Y125.897 E0.05955
G1 X139.455 Y127.322 E0.04832
G1 X138.723 Y128.700 E0.04894
G1 X137.659 Y130.265 E0.05933
G1 X136.398 Y131.712 E0.06017
G1 X134.494 Y133.339 E0.07854
G1 X132.146 Y134.440 E0.08130
G1 X130.251 Y134.863 E0.06089
G1 X128.424 Y134.853 E0.05728
G1 X126.676 Y134.504 E0.05587
G1 X125.082 Y133.815 E0.05446
G1 X124.783 Y133.991 E0.01085
G1 X122.651 Y134.712 E0.07059
G1 X119.807 Y134.847 E0.08928
G1 X117.337 Y134.235 E0.07978
G1 X115.721 Y133.381 E0.05731
G1 X114.359 Y132.299 E0.05455
G1 X113.117 Y131.031 E0.05565
G1 X112.031 Y129.641 E0.05529
G1 X111.113 Y128.153 E0.05482
G1 X110.348 Y126.534 E0.05615
G1 X109.772 Y124.847 E0.05590
G1 X109.390 Y123.110 E0.05576
G1 X109.213 Y121.515 E0.05032
G1 X109.201 Y119.841 E0.05248
G1 X109.368 Y118.157 E0.05309
G1 X109.753 Y116.353 E0.05781
G1 X110.323 Y114.659 E0.05605
G1 X111.007 Y113.178 E0.05114
G1 X111.522 Y112.317 E0.03147
G1 F8640
G1 X110.651 Y110.011 E-0.56917
G1 X110.546 Y109.191 E-0.19083
G1 E-0.04000 F2100.00000
G1 Z0.800 F10800.000
G1 X125.051 Y133.390
G1 Z0.200
G1 E0.80000 F2100.00000
G1 F1800
G1 X124.640 Y133.641 E0.01509
G1 X122.605 Y134.337 E0.06743
G1 X119.870 Y134.474 E0.08586
G1 X117.450 Y133.875 E0.07816
G1 X115.914 Y133.057 E0.05458
G1 X114.603 Y132.011 E0.05256
G1 X113.394 Y130.775 E0.05423
G1 X112.335 Y129.418 E0.05398
G1 X111.440 Y127.965 E0.05351
G1 X110.694 Y126.383 E0.05483
G1 X110.132 Y124.736 E0.05457
G1 X109.760 Y123.039 E0.05445
G1 X109.589 Y121.484 E0.04908
G1 X109.578 Y119.849 E0.05125
G1 X109.743 Y118.205 E0.05182
G1 X110.120 Y116.443 E0.05649
G1 X110.670 Y114.808 E0.05409
G1 X111.345 Y113.346 E0.05050
G1 X111.973 Y112.298 E0.03829
G1 X111.021 Y109.939 E0.07977
G1 X110.775 Y108.028 E0.06041
G1 X110.828 Y106.703 E0.04157
G1 X110.885 Y106.403 E0.00958
G1 X110.380 Y104.454 E0.06314
G1 X110.255 Y104.056 E0.01308
G1 X109.871 Y103.085 E0.03274
G1 X109.446 Y101.596 E0.04853
G1 X109.053 Y99.954 E0.05295
G1 X108.931 Y98.921 E0.03261
G1 X108.813 Y98.119 E0.02541
G1 X108.772 Y97.606 E0.01616
G1 X108.675 Y97.121 E0.01549
G1 X108.574 Y96.351 E0.02437
G1 X108.533 Y94.629 E0.05399
G1 X108.589 Y93.847 E0.02458
G1 X108.653 Y93.339 E0.01606
G1 X108.732 Y92.410 E0.02924
G1 X108.751 Y91.883 E0.01654
G1 X108.872 Y90.848 E0.03267
G1 X109.192 Y89.245 E0.05125
G1 X109.600 Y87.959 E0.04229
G1 X109.676 Y87.405 E0.01754
G1 X109.921 Y86.436 E0.03133
G1 X110.395 Y85.177 E0.04218
G1 X111.022 Y84.006 E0.04164
G1 X111.677 Y83.139 E0.03407
G1 X112.081 Y82.473 E0.02442
G1 X112.774 Y81.469 E0.03826
G1 X113.675 Y80.393 E0.04401
G1 X114.699 Y79.387 E0.04502
G1 X115.950 Y78.387 E0.05021
G1 X117.363 Y77.503 E0.05224
G1 X118.551 Y76.928 E0.04142
G1 X119.784 Y76.476 E0.04115
G1 X120.820 Y76.196 E0.03366
G1 X121.867 Y76.007 E0.03337
G1 X123.151 Y75.882 E0.04044
G1 X124.422 Y75.866 E0.03985
G1 X125.814 Y75.960 E0.04374
G1 X127.188 Y76.172 E0.04361
G1 X128.542 Y76.505 E0.04371
G1 X129.867 Y76.955 E0.04388
G1 X131.048 Y77.493 E0.04070
G1 X132.167 Y78.153 E0.04072
G1 X133.199 Y78.927 E0.04044
G1 X134.152 Y79.816 E0.04086
G1 X135.228 Y81.008 E0.05034
G1 X135.770 Y81.682 E0.02713
G1 X136.423 Y82.558 E0.03425
G1 X137.356 Y84.267 E0.06106
G1 X137.747 Y85.315 E0.03506
G1 X138.054 Y86.381 E0.03478
G1 X138.655 Y89.676 E0.10504
G1 X138.718 Y90.462 E0.02472
G1 X138.804 Y91.145 E0.02157
G1 X138.885 Y92.600 E0.04571
G1 X138.890 Y93.611 E0.03168
G1 X138.827 Y94.599 E0.03104
G1 X138.729 Y95.454 E0.02698
G1 X138.411 Y96.970 E0.04857
G1 X138.111 Y97.944 E0.03197
G1 X137.766 Y99.201 E0.04085
G1 X137.272 Y100.486 E0.04317
G1 X137.086 Y101.081 E0.01955
G1 X137.372 Y102.119 E0.03376
G1 X137.514 Y102.819 E0.02240
G1 X137.756 Y103.291 E0.01662
G1 X138.505 Y105.406 E0.07037
G1 X138.877 Y106.987 E0.05090
G1 X139.146 Y108.859 E0.05932
G1 X139.087 Y110.416 E0.04883
G1 X139.086 Y111.488 E0.03363
G1 X138.861 Y113.150 E0.05257
G1 X138.799 Y113.385 E0.00762
G1 X139.167 Y114.086 E0.02485
