; generated by Slic3r Prusa Edition 1.40.1+ on 2018-07-31 at 23:33:52

; 

; external perimeters extrusion width = 0.45mm
; perimeters extrusion width = 0.45mm
; infill extrusion width = 0.45mm
; solid infill extrusion width = 0.45mm
; top infill extrusion width = 0.40mm
; first layer extrusion width = 0.42mm

M107
M115 U3.2.1 ; tell printer latest fw version
M201 X1000 Y1000 Z200 E5000 ; sets maximum accelerations, mm/sec^2
M203 X200 Y200 Z12 E120 ; sets maximum feedrates, mm/sec
M204 S1250 T1250 ; sets acceleration (S) and retract acceleration (T)
M205 X10 Y10 Z0.4 E2.5 ; sets the jerk limits, mm/sec
M205 S0 T0 ; sets the minimum extruding and travel feed rate, mm/sec
M83  ; extruder relative mode
M104 S215 ; set extruder temp
M140 S60 ; set bed temp
M190 S60 ; wait for bed temp
M109 S215 ; wait for extruder temp
G28 W ; home all without mesh bed level
G80 ; mesh bed leveling
G1 Y-3.0 F1000.0 ; go outside print area
G92 E0.0
G1 X60.0 E9.0  F1000.0 ; intro line
G1 X100.0 E12.5  F1000.0 ; intro line
G92 E0.0
M221 S100
M900 K30; Filament gcode
G21 ; set units to millimeters
G90 ; use absolute coordinates
M83 ; use relative distances for extrusion
;BEFORE_LAYER_CHANGE
G92 E0.0
;0.2


G1 E-0.80000 F2100.00000
G1 Z0.600 F10800.000
;AFTER_LAYER_CHANGE
;0.2
G1 X107.086 Y86.242
G1 Z0.200
G1 E0.80000 F2100.00000
M204 S500
G1 F1800
G1 X108.447 Y84.552 E0.06807
G1 X109.989 Y82.987 E0.06888
G1 X111.791 Y81.499 E0.07328
G1 X113.647 Y80.263 E0.06989
G1 X116.150 Y78.979 E0.08820
G1 X118.353 Y78.155 E0.07377
G1 X120.494 Y77.598 E0.06937
G1 X122.704 Y77.255 E0.07010
G1 X124.944 Y77.136 E0.07035
G1 X127.069 Y77.233 E0.06668
G1 X129.197 Y77.537 E0.06741
G1 X131.301 Y78.050 E0.06790
G1 X133.207 Y78.712 E0.06325
G1 X134.637 Y79.341 E0.04901
G1 X136.520 Y80.363 E0.06716
G1 X138.213 Y81.502 E0.06399
G1 X139.870 Y82.860 E0.06717
G1 X141.394 Y84.377 E0.06741
G1 X142.691 Y85.940 E0.06368
G1 X143.897 Y87.706 E0.06707
G1 X144.665 Y89.061 E0.04884
G1 X145.510 Y90.873 E0.06267
G1 X146.238 Y92.923 E0.06822
G1 X146.756 Y94.998 E0.06707
G1 X147.073 Y97.138 E0.06781
G1 X147.178 Y99.149 E0.06316
G1 X147.134 Y100.749 E0.05018
G1 X146.911 Y102.754 E0.06325
G1 X146.634 Y104.205 E0.04632
G1 X141.546 Y122.030 E0.58120
G1 X140.703 Y124.197 E0.07290
G1 X139.794 Y125.883 E0.06006
G1 X138.695 Y127.471 E0.06055
G1 X137.431 Y128.921 E0.06031
G1 X135.977 Y130.253 E0.06183
G1 X134.706 Y131.133 E0.04848
G1 X133.393 Y131.788 E0.04599
G1 X131.930 Y132.273 E0.04833
G1 X130.403 Y132.537 E0.04860
G1 X120.392 Y132.586 E0.31390
G1 X119.317 Y132.508 E0.03378
G1 X118.246 Y132.313 E0.03413
G1 X116.613 Y131.788 E0.05380
G1 X114.998 Y130.950 E0.05702
G1 X113.440 Y129.756 E0.06157
G1 X112.009 Y128.320 E0.06354
G1 X110.821 Y126.818 E0.06006
G1 X109.850 Y125.276 E0.05713
G1 X109.016 Y123.569 E0.05957
G1 X108.465 Y122.063 E0.05027
G1 X103.580 Y105.077 E0.55418
G1 X103.148 Y103.116 E0.06296
G1 X102.945 Y101.668 E0.04583
G1 X102.820 Y99.545 E0.06668
G1 X102.921 Y97.210 E0.07328
G1 X103.363 Y94.439 E0.08799
G1 X103.961 Y92.293 E0.06985
G1 X104.813 Y90.125 E0.07303
G1 X105.829 Y88.160 E0.06937
G1 X107.048 Y86.289 E0.07001
G1 F8640
G1 X108.447 Y84.552 E-0.51516
G1 X109.191 Y83.796 E-0.24484
G1 E-0.04000 F2100.00000
G1 Z0.800 F10800.000
G1 X108.729 Y113.434
G1 Z0.200
G1 E0.80000 F2100.00000
G1 F1800
G1 X107.945 Y112.477 E0.03880
G1 X107.314 Y111.616 E0.03347
G1 X106.736 Y110.741 E0.03288
G1 X106.205 Y109.845 E0.03266
G1 X105.698 Y108.883 E0.03409
G1 X105.234 Y107.884 E0.03454
G1 X104.832 Y106.889 E0.03365
G1 X104.495 Y105.922 E0.03210
G1 X104.202 Y104.931 E0.03241
G1 X103.943 Y103.867 E0.03433
G1 X103.738 Y102.780 E0.03468
G1 X103.588 Y101.683 E0.03471
G1 X103.504 Y100.729 E0.03004
G1 X103.462 Y99.765 E0.03025
G1 X103.470 Y98.589 E0.03688
G1 X103.527 Y97.582 E0.03161
G1 X103.632 Y96.577 E0.03170
G1 X103.792 Y95.533 E0.03311
G1 X104.005 Y94.492 E0.03332
G1 X104.268 Y93.462 E0.03333
G1 X104.582 Y92.446 E0.03334
G1 X104.946 Y91.448 E0.03332
G1 X105.358 Y90.470 E0.03327
G1 X105.813 Y89.521 E0.03298
G1 X106.323 Y88.580 E0.03357
G1 X107.030 Y87.435 E0.04220
G1 X107.637 Y86.564 E0.03328
G1 X108.290 Y85.720 E0.03344
G1 X108.936 Y84.963 E0.03123
G1 X109.616 Y84.236 E0.03119
G1 X110.328 Y83.542 E0.03118
G1 X111.073 Y82.881 E0.03123
G1 X111.896 Y82.218 E0.03313
G1 X112.754 Y81.593 E0.03329
G1 X113.635 Y81.016 E0.03299
G1 X114.550 Y80.478 E0.03330
G1 X115.493 Y79.986 E0.03334
G1 X116.465 Y79.537 E0.03359
G1 X117.713 Y79.044 E0.04207
G1 X118.687 Y78.720 E0.03219
G1 X119.677 Y78.442 E0.03223
G1 X120.679 Y78.212 E0.03224
G1 X121.691 Y78.030 E0.03223
G1 X122.710 Y77.896 E0.03222
G1 X123.734 Y77.812 E0.03223
G1 X124.762 Y77.776 E0.03223
G1 X125.792 Y77.789 E0.03229
G1 X126.884 Y77.857 E0.03431
G1 X127.986 Y77.982 E0.03478
G1 X129.070 Y78.162 E0.03447
G1 X130.145 Y78.398 E0.03449
G1 X131.206 Y78.688 E0.03449
G1 X132.251 Y79.031 E0.03448
G1 X133.277 Y79.428 E0.03449
G1 X134.279 Y79.875 E0.03441
G1 X135.228 Y80.358 E0.03338
G1 X136.151 Y80.885 E0.03334
G1 X137.047 Y81.458 E0.03334
G1 X137.913 Y82.074 E0.03334
G1 X138.749 Y82.733 E0.03334
G1 X139.549 Y83.431 E0.03331
G1 X140.306 Y84.158 E0.03293
G1 X140.941 Y84.827 E0.02891
G1 X141.551 Y85.528 E0.02913
G1 X142.227 Y86.383 E0.03418
G1 X142.862 Y87.275 E0.03431
G1 X143.450 Y88.198 E0.03432
G1 X143.991 Y89.149 E0.03432
G1 X144.479 Y90.118 E0.03401
G1 X144.924 Y91.128 E0.03460
G1 X145.313 Y92.145 E0.03412
G1 X145.653 Y93.193 E0.03455
G1 X145.929 Y94.215 E0.03321
G1 X146.154 Y95.249 E0.03317
G1 X146.328 Y96.293 E0.03317
G1 X146.451 Y97.344 E0.03319
G1 X146.522 Y98.406 E0.03336
G1 X146.540 Y99.501 E0.03436
G1 X146.495 Y100.723 E0.03831
G1 X146.382 Y101.938 E0.03826
G1 X146.236 Y102.933 E0.03155
G1 X146.044 Y103.919 E0.03150
G1 X145.792 Y104.949 E0.03325
G1 X145.500 Y105.933 E0.03215
G1 X145.137 Y106.968 E0.03442
G1 X144.722 Y107.980 E0.03427
G1 X144.288 Y108.908 E0.03212
G1 X143.810 Y109.816 E0.03218
G1 X143.248 Y110.764 E0.03457
G1 X142.665 Y111.644 E0.03309
G1 X142.046 Y112.487 E0.03278
G1 X141.275 Y113.416 E0.03787
G1 X141.538 Y114.954 E0.04890
G1 X141.642 Y116.705 E0.05500
G1 X141.557 Y118.501 E0.05639
G1 X141.263 Y120.347 E0.05861
G1 X140.717 Y122.288 E0.06320
G1 X140.011 Y124.003 E0.05816
G1 X139.114 Y125.635 E0.05841
G1 X138.037 Y127.161 E0.05855
G1 X136.859 Y128.493 E0.05575
G1 X135.281 Y129.901 E0.06631
G1 X131.806 Y131.596 E0.12124
G1 X129.391 Y131.904 E0.07631
G1 X127.033 Y131.650 E0.07437
G1 X124.990 Y130.872 E0.06855
G1 X124.234 Y131.272 E0.02683
G1 X122.111 Y131.807 E0.06864
G1 X119.249 Y131.803 E0.08975
G1 X117.560 Y131.396 E0.05446
G1 X115.990 Y130.725 E0.05355
G1 X113.632 Y128.978 E0.09199
G1 X112.396 Y127.686 E0.05606
G1 X111.297 Y126.263 E0.05638
G1 X110.371 Y124.754 E0.05553
G1 X109.609 Y123.151 E0.05563
G1 X109.017 Y121.460 E0.05618
G1 X108.606 Y119.690 E0.05697
G1 X108.383 Y117.750 E0.06123
G1 X108.385 Y115.847 E0.05968
G1 X108.566 Y114.182 E0.05249
G1 X108.717 Y113.493 E0.02213
G1 X109.141 Y113.318 F10800.000
G1 F1800
G1 X108.879 Y113.030 E0.01222
G1 X108.241 Y112.244 E0.03175
G1 X107.626 Y111.405 E0.03262
G1 X107.054 Y110.537 E0.03259
G1 X106.532 Y109.657 E0.03208
G1 X106.034 Y108.711 E0.03350
G1 X105.578 Y107.729 E0.03394
G1 X105.187 Y106.760 E0.03278
G1 X104.853 Y105.802 E0.03182
G1 X104.565 Y104.828 E0.03184
G1 X104.311 Y103.782 E0.03374
G1 X104.109 Y102.715 E0.03408
G1 X103.962 Y101.637 E0.03411
G1 X103.880 Y100.700 E0.02948
G1 X103.839 Y99.753 E0.02971
G1 X103.846 Y98.605 E0.03599
G1 X103.903 Y97.608 E0.03132
G1 X104.007 Y96.620 E0.03114
G1 X104.164 Y95.595 E0.03254
G1 X104.373 Y94.572 E0.03273
G1 X104.632 Y93.560 E0.03275
G1 X104.941 Y92.562 E0.03275
G1 X105.299 Y91.581 E0.03274
G1 X105.703 Y90.620 E0.03269
G1 X106.151 Y89.689 E0.03240
G1 X106.652 Y88.765 E0.03297
G1 X107.342 Y87.646 E0.04121
G1 X107.938 Y86.791 E0.03268
G1 X108.580 Y85.962 E0.03287
G1 X109.214 Y85.217 E0.03068
G1 X109.888 Y84.497 E0.03092
G1 X110.588 Y83.816 E0.03063
G1 X111.320 Y83.166 E0.03068
G1 X112.129 Y82.514 E0.03257
G1 X112.972 Y81.901 E0.03271
G1 X113.837 Y81.334 E0.03241
G1 X114.737 Y80.806 E0.03272
G1 X115.663 Y80.322 E0.03276
G1 X116.618 Y79.881 E0.03298
G1 X117.837 Y79.400 E0.04108
G1 X118.794 Y79.082 E0.03161
G1 X119.775 Y78.806 E0.03195
G1 X120.759 Y78.581 E0.03167
G1 X121.753 Y78.402 E0.03167
G1 X122.745 Y78.272 E0.03138
G1 X123.761 Y78.188 E0.03195
G1 X124.770 Y78.153 E0.03166
G1 X125.782 Y78.166 E0.03173
G1 X126.855 Y78.233 E0.03372
G1 X127.929 Y78.355 E0.03388
G1 X128.994 Y78.532 E0.03387
G1 X130.050 Y78.763 E0.03389
G1 X131.093 Y79.048 E0.03389
G1 X132.119 Y79.385 E0.03387
G1 X133.127 Y79.774 E0.03389
G1 X134.112 Y80.214 E0.03382
G1 X135.045 Y80.687 E0.03279
G1 X135.952 Y81.206 E0.03276
G1 X136.832 Y81.768 E0.03276
G1 X137.684 Y82.373 E0.03276
G1 X138.504 Y83.020 E0.03276
G1 X139.291 Y83.706 E0.03273
G1 X140.036 Y84.421 E0.03237
G1 X140.664 Y85.084 E0.02865
G1 X141.263 Y85.772 E0.02861
G1 X141.928 Y86.613 E0.03361
G1 X142.552 Y87.489 E0.03371
G1 X143.130 Y88.396 E0.03372
G1 X143.661 Y89.331 E0.03372
G1 X144.140 Y90.283 E0.03341
G1 X144.574 Y91.267 E0.03370
G1 X144.955 Y92.266 E0.03352
G1 X145.290 Y93.295 E0.03395
G1 X145.561 Y94.300 E0.03263
G1 X145.783 Y95.316 E0.03259
G1 X145.954 Y96.341 E0.03259
G1 X146.075 Y97.374 E0.03261
G1 X146.145 Y98.417 E0.03277
G1 X146.163 Y99.493 E0.03374
G1 X146.119 Y100.693 E0.03766
G1 X146.008 Y101.888 E0.03763
G1 X145.865 Y102.866 E0.03098
G1 X145.675 Y103.843 E0.03122
G1 X145.429 Y104.847 E0.03240
G1 X145.143 Y105.812 E0.03157
G1 X144.782 Y106.839 E0.03412
G1 X144.379 Y107.824 E0.03339
G1 X143.949 Y108.744 E0.03183
G1 X143.478 Y109.636 E0.03161
G1 X142.931 Y110.560 E0.03369
G1 X142.353 Y111.432 E0.03280
G1 X141.746 Y112.259 E0.03217
G1 X140.874 Y113.309 E0.04279
G1 X141.162 Y114.987 E0.05337
G1 X141.265 Y116.717 E0.05435
G1 X141.181 Y118.473 E0.05512
G1 X140.897 Y120.256 E0.05662
G1 X140.365 Y122.154 E0.06182
G1 X139.667 Y123.849 E0.05747
G1 X138.789 Y125.444 E0.05708
G1 X137.735 Y126.935 E0.05723
G1 X136.584 Y128.235 E0.05445
G1 X135.091 Y129.574 E0.06288
G1 X131.726 Y131.226 E0.11754
G1 X129.409 Y131.526 E0.07325
G1 X127.098 Y131.278 E0.07288
G1 X124.963 Y130.457 E0.07171
G1 X124.118 Y130.912 E0.03009
G1 X122.042 Y131.436 E0.06715
G1 X119.315 Y131.431 E0.08550
G1 X117.693 Y131.043 E0.05228
G1 X116.158 Y130.387 E0.05235
G1 X113.894 Y128.706 E0.08842
G1 X112.688 Y127.448 E0.05463
G1 X111.613 Y126.057 E0.05512
G1 X110.707 Y124.582 E0.05426
G1 X109.954 Y122.999 E0.05499
G1 X109.377 Y121.346 E0.05490
G1 X108.976 Y119.616 E0.05568
G1 X108.758 Y117.718 E0.05989
G1 X108.760 Y115.877 E0.05771
G1 X108.940 Y114.233 E0.05185
G1 X109.128 Y113.377 E0.02750
G1 X109.552 Y113.208 F10800.000
G1 F1800
G1 X109.168 Y112.789 E0.01784
G1 X108.537 Y112.010 E0.03142
G1 X107.933 Y111.185 E0.03204
G1 X107.371 Y110.333 E0.03201
G1 X106.859 Y109.469 E0.03150
G1 X106.370 Y108.540 E0.03292
G1 X105.922 Y107.575 E0.03334
G1 X105.538 Y106.623 E0.03219
G1 X105.213 Y105.691 E0.03096
G1 X104.930 Y104.735 E0.03126
G1 X104.681 Y103.708 E0.03314
G1 X104.482 Y102.659 E0.03347
G1 X104.337 Y101.599 E0.03353
G1 X104.256 Y100.671 E0.02921
G1 X104.216 Y99.742 E0.02916
G1 X104.223 Y98.613 E0.03540
G1 X104.280 Y97.634 E0.03073
G1 X104.381 Y96.664 E0.03058
G1 X104.536 Y95.657 E0.03197
G1 X104.742 Y94.652 E0.03215
G1 X104.996 Y93.658 E0.03216
G1 X105.300 Y92.678 E0.03217
G1 X105.651 Y91.715 E0.03216
G1 X106.049 Y90.771 E0.03211
G1 X106.489 Y89.856 E0.03182
G1 X106.981 Y88.949 E0.03237
G1 X107.655 Y87.857 E0.04022
G1 X108.240 Y87.018 E0.03208
G1 X108.870 Y86.203 E0.03230
G1 X109.493 Y85.471 E0.03013
G1 X110.155 Y84.764 E0.03037
G1 X110.842 Y84.095 E0.03008
G1 X111.567 Y83.451 E0.03040
G1 X112.362 Y82.811 E0.03199
G1 X113.190 Y82.208 E0.03213
G1 X114.040 Y81.652 E0.03183
G1 X114.924 Y81.133 E0.03214
G1 X115.834 Y80.658 E0.03217
G1 X116.771 Y80.226 E0.03238
G1 X117.961 Y79.756 E0.04010
G1 X118.908 Y79.441 E0.03130
G1 X119.864 Y79.173 E0.03110
G1 X120.830 Y78.951 E0.03111
G1 X121.807 Y78.775 E0.03110
G1 X122.790 Y78.646 E0.03109
G1 X123.787 Y78.564 E0.03138
G1 X124.779 Y78.530 E0.03110
G1 X125.772 Y78.543 E0.03116
G1 X126.827 Y78.609 E0.03313
G1 X127.881 Y78.729 E0.03327
G1 X128.928 Y78.903 E0.03327
G1 X129.965 Y79.130 E0.03329
G1 X130.989 Y79.410 E0.03329
G1 X131.988 Y79.738 E0.03297
G1 X132.978 Y80.121 E0.03328
G1 X133.946 Y80.552 E0.03322
G1 X134.862 Y81.017 E0.03221
G1 X135.753 Y81.526 E0.03217
G1 X136.618 Y82.078 E0.03217
G1 X137.454 Y82.673 E0.03217
G1 X138.260 Y83.307 E0.03217
G1 X139.033 Y83.981 E0.03214
G1 X139.765 Y84.684 E0.03182
G1 X140.383 Y85.335 E0.02813
G1 X140.976 Y86.017 E0.02834
G1 X141.629 Y86.843 E0.03304
G1 X142.241 Y87.704 E0.03311
G1 X142.804 Y88.587 E0.03283
G1 X143.326 Y89.505 E0.03312
G1 X143.797 Y90.440 E0.03281
G1 X144.223 Y91.406 E0.03311
G1 X144.598 Y92.387 E0.03292
G1 X144.927 Y93.399 E0.03336
G1 X145.194 Y94.385 E0.03205
G1 X145.412 Y95.383 E0.03201
G1 X145.580 Y96.390 E0.03201
G1 X145.699 Y97.404 E0.03203
G1 X145.768 Y98.428 E0.03218
G1 X145.786 Y99.484 E0.03311
G1 X145.743 Y100.663 E0.03700
G1 X145.634 Y101.838 E0.03700
G1 X145.492 Y102.807 E0.03069
G1 X145.305 Y103.766 E0.03066
G1 X145.066 Y104.744 E0.03156
G1 X144.786 Y105.692 E0.03099
G1 X144.428 Y106.710 E0.03383
G1 X144.035 Y107.669 E0.03250
G1 X143.613 Y108.572 E0.03126
G1 X143.147 Y109.456 E0.03132
G1 X142.614 Y110.356 E0.03281
G1 X142.041 Y111.220 E0.03251
G1 X141.444 Y112.033 E0.03162
G1 X140.806 Y112.818 E0.03171
G1 X140.470 Y113.186 E0.01563
G1 X140.786 Y115.020 E0.05835
G1 X140.888 Y116.729 E0.05370
G1 X140.805 Y118.444 E0.05384
G1 X140.531 Y120.165 E0.05463
G1 X140.012 Y122.021 E0.06044
G1 X139.331 Y123.677 E0.05612
G1 X138.463 Y125.253 E0.05641
G1 X137.433 Y126.708 E0.05591
G1 X136.309 Y127.977 E0.05316
G1 X134.900 Y129.248 E0.05947
G1 X131.646 Y130.857 E0.11383
G1 X129.427 Y131.149 E0.07017
G1 X127.163 Y130.906 E0.07139
G1 X124.936 Y130.042 E0.07491
G1 X124.002 Y130.553 E0.03336
G1 X121.973 Y131.064 E0.06563
G1 X119.339 Y131.054 E0.08258
G1 X117.798 Y130.680 E0.04971
G1 X116.327 Y130.049 E0.05018
G1 X114.155 Y128.434 E0.08488
G1 X112.968 Y127.194 E0.05382
G1 X111.918 Y125.835 E0.05386
G1 X111.034 Y124.394 E0.05299
G1 X110.299 Y122.846 E0.05372
G1 X109.736 Y121.231 E0.05363
G1 X109.346 Y119.541 E0.05438
G1 X109.134 Y117.686 E0.05855
G1 X109.136 Y115.908 E0.05575
G1 X109.313 Y114.285 E0.05121
G1 X109.539 Y113.267 E0.03268
G1 F8640
G1 X109.168 Y112.789 E-0.13979
G1 X108.537 Y112.010 E-0.23142
G1 X107.933 Y111.185 E-0.23599
G1 X107.569 Y110.633 E-0.15281
G1 E-0.04000 F2100.00000
G1 Z0.800 F10800.000
G1 X140.042 Y113.094
G1 Z0.200
G1 E0.80000 F2100.00000
G1 F1800
G1 X140.144 Y113.459 E0.01189
G1 X140.410 Y115.051 E0.05061
G1 X140.511 Y116.741 E0.05308
G1 X140.428 Y118.415 E0.05255
G1 X140.165 Y120.074 E0.05266
G1 X139.659 Y121.888 E0.05906
G1 X138.986 Y123.523 E0.05543
G1 X138.138 Y125.061 E0.05507
G1 X137.132 Y126.482 E0.05459
G1 X136.033 Y127.719 E0.05188
G1 X134.709 Y128.922 E0.05610
G1 X131.565 Y130.487 E0.11009
G1 X129.401 Y130.772 E0.06846
G1 X127.230 Y130.534 E0.06847
G1 X124.907 Y129.626 E0.07818
G1 X123.886 Y130.193 E0.03664
G1 X121.904 Y130.693 E0.06410
G1 X119.406 Y130.682 E0.07830
G1 X117.903 Y130.317 E0.04852
G1 X116.497 Y129.712 E0.04799
G1 X114.416 Y128.162 E0.08135
G1 X113.260 Y126.955 E0.05240
G1 X112.234 Y125.629 E0.05259
G1 X111.361 Y124.205 E0.05235
G1 X110.644 Y122.694 E0.05244
G1 X110.096 Y121.117 E0.05235
G1 X109.716 Y119.467 E0.05308
G1 X109.510 Y117.654 E0.05720
G1 X109.512 Y115.939 E0.05379
G1 X109.687 Y114.336 E0.05056
G1 X109.963 Y113.099 E0.03974
G1 X109.457 Y112.547 E0.02347
G1 X108.833 Y111.776 E0.03110
G1 X108.240 Y110.966 E0.03147
G1 X107.688 Y110.130 E0.03143
G1 X107.186 Y109.281 E0.03092
G1 X106.706 Y108.368 E0.03233
G1 X106.267 Y107.421 E0.03275
G1 X105.889 Y106.486 E0.03160
G1 X105.573 Y105.579 E0.03012
G1 X105.295 Y104.641 E0.03068
G1 X105.050 Y103.632 E0.03254
G1 X104.855 Y102.603 E0.03286
G1 X104.712 Y101.561 E0.03295
G1 X104.632 Y100.651 E0.02867
G1 X104.593 Y99.730 E0.02888
G1 X104.600 Y98.620 E0.03480
G1 X104.656 Y97.660 E0.03015
G1 X104.756 Y96.708 E0.03002
G1 X104.908 Y95.719 E0.03139
