; generated by Slic3r Prusa Edition 1.40.1+ on 2018-07-31 at 23:10:12

; 

; external perimeters extrusion width = 0.45mm
; perimeters extrusion width = 0.45mm
; infill extrusion width = 0.45mm
; solid infill extrusion width = 0.45mm
; top infill extrusion width = 0.40mm
; first layer extrusion width = 0.42mm

M107
M115 U3.2.1 ; tell printer latest fw version
M201 X1000 Y1000 Z200 E5000 ; sets maximum accelerations, mm/sec^2
M203 X200 Y200 Z12 E120 ; sets maximum feedrates, mm/sec
M204 S1250 T1250 ; sets acceleration (S) and retract acceleration (T)
M205 X10 Y10 Z0.4 E2.5 ; sets the jerk limits, mm/sec
M205 S0 T0 ; sets the minimum extruding and travel feed rate, mm/sec
M83  ; extruder relative mode
M104 S215 ; set extruder temp
M140 S60 ; set bed temp
M190 S60 ; wait for bed temp
M109 S215 ; wait for extruder temp
G28 W ; home all without mesh bed level
G80 ; mesh bed leveling
G1 Y-3.0 F1000.0 ; go outside print area
G92 E0.0
G1 X60.0 E9.0  F1000.0 ; intro line
G1 X100.0 E12.5  F1000.0 ; intro line
G92 E0.0
M221 S95
M900 K30; Filament gcode
G21 ; set units to millimeters
G90 ; use absolute coordinates
M83 ; use relative distances for extrusion
;BEFORE_LAYER_CHANGE
G92 E0.0
;0.2


G1 E-0.80000 F2100.00000
G1 Z0.600 F10800.000
;AFTER_LAYER_CHANGE
;0.2
G1 X112.997 Y90.623
G1 Z0.200
G1 E0.80000 F2100.00000
M204 S1000
G1 F1800
G1 X113.918 Y89.476 E0.04611
G1 X114.945 Y88.429 E0.04598
G1 X116.108 Y87.460 E0.04747
G1 X117.327 Y86.638 E0.04611
G1 X119.165 Y85.694 E0.06479
G1 X120.589 Y85.168 E0.04759
G1 X122.009 Y84.801 E0.04598
G1 X123.458 Y84.577 E0.04598
G1 X124.938 Y84.497 E0.04648
G1 X126.380 Y84.561 E0.04524
G1 X127.824 Y84.768 E0.04573
G1 X129.244 Y85.117 E0.04586
G1 X130.568 Y85.583 E0.04400
G1 X132.635 Y86.615 E0.07246
G1 X133.809 Y87.399 E0.04425
G1 X134.932 Y88.317 E0.04549
G1 X135.968 Y89.350 E0.04586
G1 X136.861 Y90.433 E0.04403
G1 X138.091 Y92.372 E0.07200
G1 X138.690 Y93.642 E0.04402
G1 X139.181 Y95.012 E0.04562
G1 X139.534 Y96.420 E0.04551
G1 X139.743 Y97.816 E0.04427
G1 X139.788 Y100.283 E0.07736
G1 X139.469 Y102.520 E0.07086
G1 X134.470 Y120.099 E0.57302
G1 X134.074 Y121.075 E0.03302
G1 X133.554 Y122.042 E0.03445
G1 X132.928 Y122.950 E0.03458
G1 X132.241 Y123.747 E0.03296
G1 X131.419 Y124.515 E0.03530
G1 X130.973 Y124.827 E0.01705
G1 X130.351 Y125.100 E0.02132
G1 X129.735 Y125.227 E0.01971
G1 X120.124 Y125.210 E0.30133
G1 X119.471 Y125.039 E0.02118
G1 X118.848 Y124.717 E0.02199
G1 X118.214 Y124.194 E0.02578
G1 X117.398 Y123.348 E0.03686
G1 X116.781 Y122.556 E0.03147
G1 X116.202 Y121.622 E0.03445
G1 X115.730 Y120.634 E0.03433
G1 X115.386 Y119.653 E0.03259
G1 X110.687 Y103.161 E0.53769
G1 X110.275 Y101.000 E0.06895
G1 X110.181 Y99.529 E0.04623
G1 X110.232 Y98.063 E0.04598
G1 X110.428 Y96.614 E0.04586
G1 X110.782 Y95.134 E0.04772
G1 X111.502 Y93.197 E0.06479
G1 X112.173 Y91.893 E0.04598
G1 X112.964 Y90.673 E0.04559
G1 F8640
G1 X113.918 Y89.476 E-0.35333
G1 X114.945 Y88.429 E-0.33863
G1 X115.171 Y88.241 E-0.06804
G1 E-0.04000 F2100.00000
G1 Z0.800 F10800.000
G1 X130.797 Y124.493
G1 Z0.200
G1 E0.80000 F2100.00000
G1 F1800
G1 X130.240 Y124.740 E0.01912
G1 X129.694 Y124.852 E0.01746
G1 X120.197 Y124.840 E0.29778
G1 X119.609 Y124.689 E0.01904
G1 X119.053 Y124.400 E0.01963
G1 X118.470 Y123.918 E0.02372
G1 X117.687 Y123.106 E0.03537
G1 X117.091 Y122.341 E0.03042
G1 X116.534 Y121.442 E0.03317
G1 X116.079 Y120.491 E0.03305
G1 X115.745 Y119.538 E0.03168
G1 X111.050 Y103.059 E0.53723
G1 X110.650 Y100.960 E0.06700
G1 X110.558 Y99.526 E0.04504
G1 X110.608 Y98.095 E0.04492
G1 X110.799 Y96.682 E0.04469
G1 X111.141 Y95.250 E0.04618
G1 X111.849 Y93.346 E0.06369
G1 X112.503 Y92.075 E0.04480
G1 X113.305 Y90.840 E0.04618
G1 X114.200 Y89.726 E0.04481
G1 X115.201 Y88.706 E0.04481
G1 X116.333 Y87.763 E0.04618
G1 X117.515 Y86.964 E0.04475
G1 X119.321 Y86.037 E0.06362
G1 X120.702 Y85.527 E0.04618
G1 X122.086 Y85.170 E0.04481
G1 X123.498 Y84.952 E0.04481
G1 X124.936 Y84.874 E0.04515
G1 X126.345 Y84.936 E0.04423
G1 X127.753 Y85.138 E0.04458
G1 X129.137 Y85.479 E0.04469
G1 X130.433 Y85.935 E0.04309
G1 X132.436 Y86.936 E0.07020
G1 X133.585 Y87.703 E0.04332
G1 X134.680 Y88.598 E0.04435
G1 X135.689 Y89.604 E0.04469
G1 X136.564 Y90.665 E0.04310
G1 X137.756 Y92.544 E0.06975
G1 X138.342 Y93.787 E0.04310
G1 X138.820 Y95.122 E0.04447
G1 X139.164 Y96.494 E0.04436
G1 X139.368 Y97.857 E0.04321
G1 X139.411 Y100.260 E0.07535
G1 X139.102 Y102.433 E0.06883
G1 X134.122 Y119.954 E0.57112
G1 X133.733 Y120.914 E0.03245
G1 X133.232 Y121.845 E0.03317
G1 X132.630 Y122.719 E0.03328
G1 X131.980 Y123.473 E0.03122
G1 X130.843 Y124.454 E0.04708
G1 F8640
G1 X130.240 Y124.740 E-0.15414
G1 X129.694 Y124.852 E-0.12858
G1 X127.627 Y124.850 E-0.47727
G1 E-0.04000 F2100.00000
G1 Z0.800 F10800.000
G1 X122.831 Y110.550
G1 Z0.200
G1 E0.80000 F2100.00000
G1 F1800
G1 X120.877 Y109.880 E0.06478
G1 X120.365 Y109.665 E0.01740
G1 X119.860 Y109.424 E0.01755
G1 X119.367 Y109.158 E0.01755
G1 X118.888 Y108.868 E0.01755
G1 X118.425 Y108.555 E0.01755
G1 X117.980 Y108.222 E0.01743
G1 X117.406 Y107.733 E0.02364
G1 X116.736 Y107.081 E0.02929
G1 X116.367 Y106.669 E0.01737
G1 X116.014 Y106.234 E0.01755
G1 X115.684 Y105.782 E0.01755
G1 X115.376 Y105.314 E0.01755
G1 X115.092 Y104.832 E0.01755
G1 X114.832 Y104.337 E0.01755
G1 X114.597 Y103.829 E0.01755
G1 X114.387 Y103.310 E0.01755
G1 X114.202 Y102.781 E0.01755
G1 X114.045 Y102.244 E0.01755
G1 X113.913 Y101.700 E0.01755
G1 X113.809 Y101.150 E0.01755
G1 X113.732 Y100.596 E0.01755
G1 X113.683 Y100.038 E0.01755
G1 X113.661 Y99.479 E0.01755
G1 X113.667 Y98.919 E0.01755
G1 X113.700 Y98.361 E0.01755
G1 X113.761 Y97.804 E0.01755
G1 X113.850 Y97.252 E0.01755
G1 X113.965 Y96.704 E0.01755
G1 X114.107 Y96.163 E0.01755
G1 X114.276 Y95.629 E0.01755
G1 X114.471 Y95.104 E0.01755
G1 X114.692 Y94.590 E0.01755
G1 X114.938 Y94.087 E0.01755
G1 X115.208 Y93.597 E0.01755
G1 X115.502 Y93.121 E0.01755
G1 X115.820 Y92.660 E0.01755
G1 X116.159 Y92.215 E0.01755
G1 X116.520 Y91.787 E0.01755
G1 X116.902 Y91.378 E0.01755
G1 X117.304 Y90.988 E0.01755
G1 X117.724 Y90.619 E0.01755
G1 X118.162 Y90.270 E0.01755
G1 X118.614 Y89.946 E0.01743
G1 X119.252 Y89.545 E0.02364
G1 X120.075 Y89.102 E0.02929
G1 X120.580 Y88.874 E0.01737
G1 X121.100 Y88.668 E0.01755
G1 X121.631 Y88.489 E0.01755
G1 X122.169 Y88.336 E0.01755
G1 X122.714 Y88.210 E0.01755
G1 X123.265 Y88.110 E0.01755
G1 X123.820 Y88.039 E0.01755
G1 X124.374 Y87.994 E0.01743
G1 X125.128 Y87.981 E0.02364
G1 X126.061 Y88.027 E0.02929
G1 X126.611 Y88.092 E0.01737
G1 X127.163 Y88.185 E0.01755
G1 X127.710 Y88.306 E0.01755
G1 X128.250 Y88.453 E0.01755
G1 X128.782 Y88.627 E0.01755
G1 X129.305 Y88.826 E0.01755
G1 X129.817 Y89.051 E0.01755
G1 X130.318 Y89.302 E0.01755
G1 X130.806 Y89.576 E0.01755
G1 X131.279 Y89.875 E0.01755
G1 X131.737 Y90.196 E0.01755
G1 X132.179 Y90.540 E0.01755
G1 X132.604 Y90.905 E0.01755
G1 X133.009 Y91.290 E0.01755
G1 X133.396 Y91.695 E0.01755
G1 X133.757 Y92.114 E0.01734
G1 X134.212 Y92.711 E0.02352
G1 X134.725 Y93.486 E0.02915
G1 X134.997 Y93.965 E0.01728
G1 X135.247 Y94.463 E0.01746
G1 X135.473 Y94.972 E0.01746
G1 X135.675 Y95.494 E0.01755
G1 X135.850 Y96.023 E0.01746
G1 X135.998 Y96.559 E0.01746
G1 X136.121 Y97.103 E0.01746
G1 X136.216 Y97.651 E0.01746
G1 X136.284 Y98.204 E0.01746
G1 X136.325 Y98.757 E0.01738
G1 X136.337 Y99.514 E0.02374
G1 X136.314 Y100.071 E0.01747
G1 X136.263 Y100.628 E0.01755
G1 X136.184 Y101.183 E0.01755
G1 X136.078 Y101.732 E0.01755
G1 X135.946 Y102.276 E0.01755
G1 X135.786 Y102.813 E0.01755
G1 X135.601 Y103.341 E0.01755
G1 X135.389 Y103.859 E0.01755
G1 X135.152 Y104.366 E0.01755
G1 X134.891 Y104.861 E0.01755
G1 X134.605 Y105.342 E0.01755
G1 X134.296 Y105.809 E0.01755
G1 X133.964 Y106.260 E0.01755
G1 X133.611 Y106.694 E0.01755
G1 X133.236 Y107.109 E0.01755
G1 X132.842 Y107.506 E0.01755
G1 X132.431 Y107.881 E0.01743
G1 X131.843 Y108.353 E0.02364
G1 X131.081 Y108.887 E0.02917
G1 X130.435 Y109.264 E0.02346
G1 X129.599 Y109.681 E0.02929
G1 X129.091 Y109.891 E0.01722
G1 X127.059 Y110.583 E0.06730
G1 X127.122 Y110.620 E0.00227
G1 X126.788 Y110.515 E0.01096
G1 X125.817 Y110.626 E0.03065
G1 X125.263 Y110.653 E0.01740
G1 X124.703 Y110.652 E0.01755
G1 X124.149 Y110.624 E0.01741
G1 X123.180 Y110.511 E0.03059
G1 X122.518 Y110.755 E0.02209
G1 X122.781 Y110.583 E0.00984
G1 F8640
G1 X120.877 Y109.880 E-0.46871
G1 X120.365 Y109.665 E-0.12811
G1 X119.860 Y109.424 E-0.12924
G1 X119.730 Y109.354 E-0.03394
G1 E-0.04000 F2100.00000
G1 Z0.800 F10800.000
G1 X127.969 Y110.672
G1 Z0.200
G1 E0.80000 F2100.00000
G1 F1800
G1 X128.718 Y111.103 E0.02709
G1 X129.323 Y111.545 E0.02348
G1 X129.875 Y112.051 E0.02348
G1 X130.368 Y112.615 E0.02348
G1 X130.796 Y113.229 E0.02348
G1 X131.155 Y113.886 E0.02348
G1 X131.439 Y114.579 E0.02348
G1 X131.646 Y115.299 E0.02348
G1 X131.773 Y116.041 E0.02360
G1 X131.817 Y116.792 E0.02360
G1 X131.778 Y117.544 E0.02360
G1 X131.656 Y118.287 E0.02360
G1 X131.454 Y119.012 E0.02360
G1 X131.172 Y119.710 E0.02360
G1 X130.816 Y120.372 E0.02360
G1 X130.388 Y120.992 E0.02360
G1 X129.895 Y121.561 E0.02360
G1 X129.359 Y122.056 E0.02291
G1 X129.290 Y122.075 E0.00224
G1 X129.198 Y122.051 E0.00297
G1 X129.098 Y121.978 E0.00389
G1 X128.999 Y121.847 E0.00513
G1 X128.938 Y121.691 E0.00526
G1 X128.949 Y121.576 E0.00365
G1 X129.438 Y121.117 E0.02101
G1 X129.885 Y120.602 E0.02139
G1 X130.272 Y120.040 E0.02139
G1 X130.596 Y119.437 E0.02145
G1 X130.886 Y118.679 E0.02546
G1 X131.034 Y118.149 E0.01724
G1 X131.144 Y117.476 E0.02139
G1 X131.179 Y116.795 E0.02139
G1 X131.139 Y116.113 E0.02139
G1 X131.024 Y115.441 E0.02139
G1 X130.837 Y114.788 E0.02129
G1 X130.580 Y114.160 E0.02129
G1 X130.255 Y113.564 E0.02129
G1 X129.866 Y113.007 E0.02129
G1 X129.419 Y112.497 E0.02129
G1 X128.918 Y112.038 E0.02129
G1 X128.371 Y111.637 E0.02129
G1 X127.782 Y111.298 E0.02129
G1 X127.160 Y111.026 E0.02129
G1 X126.752 Y110.899 E0.01340
G1 X125.848 Y111.002 E0.02854
G1 X125.272 Y111.030 E0.01808
G1 X124.693 Y111.029 E0.01813
G1 X124.117 Y111.000 E0.01808
G1 X123.225 Y110.896 E0.02815
G1 X122.512 Y111.159 E0.02385
G1 X121.903 Y111.468 E0.02141
G1 X121.332 Y111.842 E0.02139
G1 X120.806 Y112.277 E0.02139
G1 X120.331 Y112.766 E0.02139
G1 X119.913 Y113.306 E0.02139
G1 X119.557 Y113.888 E0.02139
G1 X119.268 Y114.506 E0.02139
G1 X119.048 Y115.151 E0.02139
G1 X118.900 Y115.820 E0.02145
G1 X118.828 Y116.628 E0.02546
G1 X118.830 Y117.178 E0.01724
G1 X118.907 Y117.856 E0.02139
G1 X119.059 Y118.521 E0.02139
G1 X119.283 Y119.166 E0.02139
G1 X119.577 Y119.782 E0.02139
G1 X119.937 Y120.361 E0.02139
G1 X120.359 Y120.898 E0.02139
G1 X121.049 Y121.577 E0.03037
G1 X121.058 Y121.695 E0.00371
G1 X121.001 Y121.852 E0.00522
G1 X120.907 Y121.976 E0.00490
G1 X120.774 Y122.064 E0.00499
G1 X120.666 Y122.068 E0.00338
G1 X120.408 Y121.856 E0.01048
G1 X119.880 Y121.319 E0.02362
G1 X119.415 Y120.727 E0.02360
G1 X119.018 Y120.087 E0.02360
G1 X118.694 Y119.408 E0.02360
G1 X118.447 Y118.697 E0.02360
G1 X118.279 Y117.963 E0.02360
G1 X118.194 Y117.216 E0.02360
G1 X118.191 Y116.463 E0.02360
G1 X118.272 Y115.715 E0.02360
G1 X118.434 Y114.980 E0.02360
G1 X118.676 Y114.267 E0.02360
G1 X118.996 Y113.586 E0.02360
G1 X119.389 Y112.944 E0.02360
G1 X119.850 Y112.349 E0.02360
G1 X120.374 Y111.808 E0.02360
G1 X120.954 Y111.329 E0.02360
G1 X121.980 Y110.657 E0.03847
G1 X120.742 Y110.232 E0.04102
G1 X120.211 Y110.010 E0.01808
G1 X119.689 Y109.760 E0.01813
G1 X119.180 Y109.486 E0.01813
G1 X118.685 Y109.186 E0.01813
G1 X118.206 Y108.862 E0.01813
G1 X117.744 Y108.516 E0.01809
G1 X117.152 Y108.012 E0.02440
G1 X116.464 Y107.343 E0.03009
G1 X116.079 Y106.913 E0.01807
G1 X115.715 Y106.464 E0.01813
G1 X115.374 Y105.997 E0.01813
G1 X115.056 Y105.514 E0.01813
G1 X114.762 Y105.016 E0.01813
G1 X114.494 Y104.504 E0.01813
G1 X114.250 Y103.979 E0.01813
G1 X114.034 Y103.443 E0.01813
G1 X113.843 Y102.897 E0.01813
G1 X113.680 Y102.342 E0.01813
G1 X113.545 Y101.780 E0.01813
G1 X113.437 Y101.211 E0.01813
G1 X113.358 Y100.638 E0.01813
G1 X113.307 Y100.062 E0.01813
G1 X113.284 Y99.484 E0.01813
G1 X113.290 Y98.906 E0.01813
G1 X113.325 Y98.329 E0.01813
G1 X113.387 Y97.754 E0.01813
G1 X113.479 Y97.183 E0.01813
G1 X113.598 Y96.617 E0.01813
G1 X113.745 Y96.058 E0.01813
G1 X113.920 Y95.506 E0.01813
G1 X114.121 Y94.964 E0.01813
G1 X114.349 Y94.433 E0.01813
G1 X114.603 Y93.913 E0.01813
G1 X114.882 Y93.407 E0.01813
G1 X115.186 Y92.915 E0.01813
G1 X115.514 Y92.438 E0.01813
G1 X115.865 Y91.979 E0.01813
G1 X116.238 Y91.537 E0.01813
G1 X116.633 Y91.114 E0.01813
G1 X117.048 Y90.711 E0.01813
G1 X117.482 Y90.329 E0.01813
G1 X117.935 Y89.969 E0.01813
G1 X118.404 Y89.633 E0.01809
G1 X119.063 Y89.219 E0.02440
G1 X119.908 Y88.764 E0.03009
G1 X120.433 Y88.526 E0.01807
G1 X120.971 Y88.314 E0.01813
G1 X121.518 Y88.129 E0.01813
G1 X122.075 Y87.971 E0.01813
G1 X122.638 Y87.840 E0.01813
G1 X123.207 Y87.738 E0.01813
G1 X123.781 Y87.663 E0.01813
G1 X124.356 Y87.618 E0.01809
G1 X125.134 Y87.604 E0.02440
G1 X126.093 Y87.651 E0.03009
G1 X126.665 Y87.719 E0.01807
G1 X127.235 Y87.815 E0.01813
G1 X127.800 Y87.940 E0.01813
G1 X128.358 Y88.092 E0.01813
G1 X128.908 Y88.271 E0.01813
G1 X129.448 Y88.477 E0.01813
G1 X129.978 Y88.710 E0.01813
G1 X130.495 Y88.969 E0.01813
G1 X130.999 Y89.252 E0.01813
G1 X131.488 Y89.561 E0.01813
G1 X131.962 Y89.893 E0.01813
G1 X132.418 Y90.248 E0.01813
G1 X132.857 Y90.625 E0.01813
G1 X133.276 Y91.023 E0.01813
G1 X133.675 Y91.442 E0.01813
G1 X134.050 Y91.876 E0.01800
G1 X134.519 Y92.492 E0.02428
G1 X135.046 Y93.289 E0.02994
G1 X135.329 Y93.787 E0.01798
G1 X135.588 Y94.301 E0.01804
G1 X135.822 Y94.827 E0.01804
G1 X136.030 Y95.367 E0.01813
G1 X136.211 Y95.913 E0.01804
G1 X136.364 Y96.468 E0.01804
G1 X136.490 Y97.029 E0.01804
G1 X136.589 Y97.596 E0.01804
G1 X136.659 Y98.167 E0.01804
G1 X136.702 Y98.740 E0.01801
G1 X136.714 Y99.519 E0.02443
G1 X136.690 Y100.096 E0.01811
G1 X136.637 Y100.672 E0.01813
G1 X136.556 Y101.245 E0.01813
G1 X136.447 Y101.813 E0.01813
G1 X136.310 Y102.374 E0.01813
G1 X136.145 Y102.929 E0.01813
G1 X135.953 Y103.474 E0.01813
G1 X135.735 Y104.010 E0.01813
G1 X135.490 Y104.534 E0.01813
G1 X135.220 Y105.045 E0.01813
G1 X134.925 Y105.543 E0.01813
G1 X134.605 Y106.025 E0.01813
G1 X134.263 Y106.491 E0.01813
G1 X133.897 Y106.939 E0.01813
G1 X133.510 Y107.369 E0.01813
G1 X133.103 Y107.779 E0.01813
G1 X132.676 Y108.168 E0.01809
G1 X132.070 Y108.655 E0.02440
G1 X131.284 Y109.204 E0.03005
G1 X130.614 Y109.596 E0.02433
G1 X129.755 Y110.024 E0.03009
G1 X129.225 Y110.244 E0.01802
G1 X128.026 Y110.653 E0.03969
G1 X127.695 Y110.963 F10800.000
G1 X127.303 Y110.700
G1 F1800
G1 X127.932 Y111.017 E0.01518
G1 X128.544 Y111.370 E0.01523
G1 X129.115 Y111.787 E0.01523
G1 X129.647 Y112.274 E0.01553
G1 X130.117 Y112.811 E0.01538
G1 X130.525 Y113.397 E0.01538
G1 X130.870 Y114.030 E0.01553
G1 X131.138 Y114.684 E0.01523
G1 X131.333 Y115.363 E0.01523
G1 X131.455 Y116.070 E0.01545
G1 X131.498 Y116.793 E0.01561
G1 X131.460 Y117.517 E0.01561
G1 X131.343 Y118.225 E0.01546
G1 X131.146 Y118.907 E0.01530
G1 X130.889 Y119.562 E0.01517
G1 X130.544 Y120.206 E0.01574
G1 X130.136 Y120.797 E0.01546
G1 X129.666 Y121.339 E0.01546
G1 X129.282 Y121.694 E0.01128
G1 X129.136 Y121.682 E0.00315
G1 F8640
G1 X129.282 Y121.694 E-0.03374
G1 X129.666 Y121.339 E-0.12092
G1 X130.136 Y120.797 E-0.16567
G1 X130.544 Y120.206 E-0.16566
G1 X130.889 Y119.562 E-0.16868
G1 X131.056 Y119.138 E-0.10533
G1 E-0.04000 F2100.00000
G1 Z0.800 F10800.000
G1 X120.859 Y121.690
G1 Z0.200
G1 E0.80000 F2100.00000
G1 F1800
G1 X120.718 Y121.703 E0.00307
G1 X120.615 Y121.612 E0.00297
G1 X120.119 Y121.108 E0.01528
G1 X119.680 Y120.550 E0.01536
G1 X119.298 Y119.934 E0.01567
G1 X118.989 Y119.287 E0.01551
G1 X118.753 Y118.609 E0.01551
G1 X118.593 Y117.910 E0.01551
G1 X118.512 Y117.197 E0.01551
G1 X118.516 Y116.480 E0.01551
G1 X118.586 Y115.766 E0.01551
G1 X118.741 Y115.066 E0.01551
G1 X118.972 Y114.386 E0.01551
G1 X119.280 Y113.731 E0.01567
G1 X119.651 Y113.125 E0.01536
G1 X120.086 Y112.563 E0.01536
G1 X120.585 Y112.048 E0.01551
G1 X121.143 Y111.586 E0.01567
G1 X121.749 Y111.189 E0.01567
G1 X122.050 Y111.015 E0.00836
G1 X122.350 Y110.841 E0.00922
