; generated by Slic3r Prusa Edition 1.40.1+ on 2018-08-05 at 13:25:33

; 

; external perimeters extrusion width = 0.45mm
; perimeters extrusion width = 0.45mm
; infill extrusion width = 0.45mm
; solid infill extrusion width = 0.45mm
; top infill extrusion width = 0.40mm
; support material extrusion width = 0.35mm
; first layer extrusion width = 0.42mm

M107
M115 U3.3.1 ; tell printer latest fw version
M201 X1000 Y1000 Z1000 E9000 ; sets maximum accelerations, mm/sec^2
M203 X200 Y200 Z12 E120 ; sets maximum feedrates, mm/sec
M204 S1250 T1250 ; sets acceleration (S) and retract acceleration (T)
M205 X8 Y8 Z0.4 E1.5 ; sets the jerk limits, mm/sec
M205 S0 T0 ; sets the minimum extruding and travel feed rate, mm/sec
M83  ; extruder relative mode
M104 S230 ; set extruder temp
M140 S85 ; set bed temp
M190 S85 ; wait for bed temp
M109 S230 ; wait for extruder temp
G28 W ; home all without mesh bed level
G80 ; mesh bed leveling
G1 Y-3.0 F1000.0 ; go outside print area
G92 E0.0
G1 X60.0 E9.0  F1000.0 ; intro line
G1 X100.0 E12.5  F1000.0 ; intro line
G92 E0.0
M221 S95
M900 K45; Filament gcode
G21 ; set units to millimeters
G90 ; use absolute coordinates
M83 ; use relative distances for extrusion
;BEFORE_LAYER_CHANGE
G92 E0.0
;0.2


G1 E-0.80000 F2100.00000
G1 Z0.600 F10800.000
;AFTER_LAYER_CHANGE
;0.2
G1 X105.706 Y85.435
G1 Z0.200
G1 E0.80000 F2100.00000
M204 S1000
G1 F1800
G1 X107.571 Y82.648 E0.10515
G1 X108.031 Y82.175 E0.02066
G1 X113.048 Y79.625 E0.17646
G1 X113.615 Y79.438 E0.01873
G1 X138.593 Y79.402 E0.78317
G1 X139.420 Y79.566 E0.02642
G1 X140.123 Y80.030 E0.02642
G1 X142.036 Y82.781 E0.10507
G1 X145.327 Y90.465 E0.26209
G1 X145.372 Y111.008 E0.64411
G1 X145.215 Y111.811 E0.02563
G1 X144.756 Y112.519 E0.02646
G1 X131.919 Y125.789 E0.57889
G1 X130.779 Y126.754 E0.04685
G1 X130.149 Y127.018 E0.02140
G1 X129.472 Y127.117 E0.02145
G1 X120.624 Y127.117 E0.27743
G1 X120.122 Y127.078 E0.01581
G1 X119.582 Y126.928 E0.01755
G1 X118.916 Y126.548 E0.02405
G1 X117.783 Y125.468 E0.04909
G1 X110.038 Y116.929 E0.36144
G1 X106.058 Y112.400 E0.18904
G1 X105.663 Y111.693 E0.02541
G1 X105.549 Y111.007 E0.02179
G1 X105.549 Y86.244 E0.77643
G1 X105.694 Y85.493 E0.02398
G1 F8640
G1 X107.507 Y82.746 E-0.76000
G1 E-0.04000 F2100.00000
G1 Z0.800 F10800.000
G1 X110.000 Y91.404
G1 Z0.200
G1 E0.80000 F2100.00000
G1 F1800
G1 X110.000 Y108.000 E0.42375
G1 X110.000 Y108.035 F10800.000
G1 F1800
G1 X110.000 Y113.156 E0.16057
G1 X110.754 Y113.156 E0.02365
G1 X110.754 Y108.205 E0.15525
G1 X111.508 Y108.205 E0.02365
G1 X111.508 Y113.156 E0.15525
G1 X111.681 Y113.156 E0.00543
G1 X111.681 Y115.485 E0.07301
G1 X112.262 Y115.485 E0.01822
G1 X112.262 Y110.533 E0.15525
G1 X113.017 Y110.533 E0.02365
G1 X113.017 Y115.485 E0.15525
G1 X113.771 Y115.485 E0.02365
G1 X113.771 Y110.533 E0.15525
G1 X114.304 Y110.533 E0.01673
G1 X114.304 Y112.862 E0.07301
G1 X114.525 Y112.862 E0.00692
G1 X114.525 Y117.813 E0.15525
G1 X115.279 Y117.813 E0.02365
G1 X115.279 Y112.862 E0.15525
G1 X116.033 Y112.862 E0.02365
G1 X116.033 Y117.813 E0.15525
G1 X116.787 Y117.813 E0.02365
G1 X116.787 Y115.190 E0.08224
G1 X117.542 Y115.190 E0.02365
G1 X117.542 Y117.813 E0.08224
G1 X117.621 Y117.813 E0.00249
G1 X117.794 Y117.038 E0.02492
G1 X118.052 Y116.279 E0.02512
G1 X118.296 Y115.756 E0.01809
G1 X118.296 Y115.079 E0.02122
G1 X118.572 Y114.627 E0.01661
G1 X119.050 Y114.011 E0.02444
G1 X119.050 Y114.817 E0.02528
G1 F8640
G1 X119.050 Y114.011 E-0.18617
G1 X118.572 Y114.627 E-0.17998
G1 X118.296 Y115.079 E-0.12234
G1 X118.296 Y115.756 E-0.15629
G1 X118.085 Y116.208 E-0.11522
G1 E-0.04000 F2100.00000
G1 Z0.800 F10800.000
G1 X118.985 Y113.771
G1 Z0.200
G1 E0.80000 F2100.00000
G1 F1800
G1 X118.985 Y112.785 E0.02517
G1 X118.457 Y112.524 E0.01505
G1 X118.457 Y114.201 E0.04281
G1 X118.274 Y114.439 E0.00766
G1 X118.030 Y114.838 E0.01194
G1 X117.928 Y114.838 E0.00260
G1 X117.928 Y112.264 E0.06572
G1 X117.768 Y112.185 E0.00455
G1 X117.734 Y112.201 E0.00096
G1 X117.504 Y112.185 E0.00590
G1 X117.400 Y112.116 E0.00320
G1 X117.400 Y114.838 E0.06950
G1 X116.986 Y114.838 E0.01057
G1 X116.986 Y112.509 E0.05946
G1 X116.871 Y112.509 E0.00293
G1 X116.871 Y111.762 E0.01906
G1 X116.342 Y111.409 E0.01623
G1 X116.342 Y112.509 E0.02808
G1 X115.814 Y112.509 E0.01350
G1 X115.814 Y110.817 E0.04320
G1 X115.285 Y110.354 E0.01795
G1 X115.285 Y112.509 E0.05503
G1 X114.757 Y112.509 E0.01350
G1 X114.757 Y109.890 E0.06687
G1 X114.493 Y109.815 E0.00700
G1 X114.228 Y109.513 E0.01026
G1 X114.228 Y110.180 E0.01704
G1 X113.700 Y110.180 E0.01350
G1 X113.700 Y108.910 E0.03243
G1 X113.468 Y108.646 E0.00899
G1 X113.422 Y108.419 E0.00590
G1 X113.434 Y108.383 E0.00096
G1 X113.171 Y107.991 E0.01206
G1 X113.171 Y110.180 E0.05591
G1 X112.643 Y110.180 E0.01350
G1 X112.643 Y107.200 E0.07611
G1 X112.428 Y106.878 E0.00987
G1 X112.390 Y106.876 E0.00096
G1 X112.199 Y106.747 E0.00590
G1 X112.114 Y106.575 E0.00488
G1 X112.114 Y107.852 E0.03260
G1 X111.586 Y107.852 E0.01350
G1 X111.586 Y105.503 E0.05997
G1 X111.511 Y105.351 E0.00432
G1 X111.525 Y105.121 E0.00590
G1 X111.546 Y105.089 E0.00096
G1 X111.057 Y103.650 E0.03882
G1 X111.057 Y107.852 E0.10730
G1 X110.529 Y107.852 E0.01350
G1 X110.529 Y100.714 E0.18227
G1 X110.456 Y99.613 E0.02817
G1 X110.425 Y99.592 E0.00096
G1 X110.324 Y99.384 E0.00590
G1 X110.425 Y97.832 E0.03972
G1 X110.529 Y97.676 E0.00476
G1 X110.529 Y91.552 E0.15637
G1 X111.057 Y91.552 E0.01350
G1 X111.057 Y95.044 E0.08915
G1 X111.371 Y94.119 E0.02494
G1 X111.544 Y93.966 E0.00590
G1 X111.586 Y93.949 E0.00114
G1 X111.586 Y91.552 E0.06121
G1 X112.114 Y91.552 E0.01350
G1 X112.114 Y92.877 E0.03384
G1 X112.329 Y92.443 E0.01238
G1 X112.329 Y91.552 E0.02274
G1 X112.643 Y91.552 E0.00802
G1 X112.643 Y86.895 E0.11891
G1 X113.171 Y86.895 E0.01350
G1 X113.171 Y90.888 E0.10195
G1 X113.245 Y90.777 E0.00341
G1 X113.452 Y90.674 E0.00590
G1 X113.490 Y90.676 E0.00096
G1 X113.700 Y90.437 E0.00813
G1 X113.700 Y86.895 E0.09044
G1 X114.228 Y86.895 E0.01350
G1 X114.228 Y89.834 E0.07505
G1 X114.657 Y89.345 E0.01660
G1 X114.657 Y89.224 E0.00311
G1 X114.695 Y89.224 E0.00097
G1 X114.757 Y89.055 E0.00459
G1 X114.757 Y86.895 E0.05515
G1 X115.285 Y86.895 E0.01350
G1 X115.285 Y88.591 E0.04332
G1 X115.814 Y88.128 E0.01795
G1 X115.814 Y86.895 E0.03148
G1 X116.342 Y86.895 E0.01350
G1 X116.342 Y87.894 E0.02550
G1 X116.871 Y87.540 E0.01623
G1 X116.871 Y86.895 E0.01648
G1 X116.986 Y86.895 E0.00293
G1 X116.986 Y84.566 E0.05946
G1 X117.400 Y84.566 E0.01057
G1 X117.400 Y87.187 E0.06692
G1 X117.688 Y86.994 E0.00886
G1 X117.691 Y86.957 E0.00096
G1 X117.820 Y86.765 E0.00590
G1 X117.928 Y86.712 E0.00308
G1 X117.928 Y84.566 E0.05478
G1 X118.457 Y84.566 E0.01350
G1 X118.457 Y86.451 E0.04812
G1 X118.985 Y86.191 E0.01505
G1 X118.985 Y84.566 E0.04147
G1 X119.514 Y84.566 E0.01350
G1 X119.514 Y86.100 E0.03915
G1 X120.042 Y85.920 E0.01425
G1 X120.042 Y84.566 E0.03457
G1 X120.571 Y84.566 E0.01350
G1 X120.571 Y85.741 E0.02999
G1 X121.099 Y85.562 E0.01425
G1 X121.099 Y84.566 E0.02541
G1 X121.628 Y84.566 E0.01350
G1 X121.628 Y85.293 E0.01856
G1 X122.156 Y85.188 E0.01376
G1 X122.156 Y84.566 E0.01587
G1 X122.685 Y84.566 E0.01350
G1 X122.685 Y85.083 E0.01319
G1 X122.903 Y85.040 E0.00569
G1 X123.122 Y85.113 E0.00590
G1 X123.148 Y85.141 E0.00096
G1 X123.213 Y85.137 E0.00169
G1 X123.213 Y84.566 E0.01457
G1 X123.742 Y84.566 E0.01350
G1 X123.742 Y85.102 E0.01368
G1 X124.271 Y85.068 E0.01352
G1 X124.271 Y84.566 E0.01280
G1 X124.799 Y84.566 E0.01350
G1 X124.799 Y85.033 E0.01191
G1 X124.954 Y85.023 E0.00396
G1 X124.975 Y84.992 E0.00096
G1 X125.182 Y84.890 E0.00590
G1 X125.328 Y84.900 E0.00371
G1 X125.328 Y84.566 E0.00851
G1 X125.856 Y84.566 E0.01350
G1 X125.856 Y84.934 E0.00939
G1 X126.385 Y84.969 E0.01352
G1 X126.385 Y84.566 E0.01028
G1 X126.913 Y84.566 E0.01350
G1 X126.913 Y85.110 E0.01389
G1 X126.944 Y85.153 E0.00135
G1 X127.442 Y85.252 E0.01295
G1 X127.442 Y84.566 E0.01751
G1 X127.970 Y84.566 E0.01350
G1 X127.970 Y85.357 E0.02020
G1 X128.499 Y85.463 E0.01376
G1 X128.499 Y84.566 E0.02288
G1 X129.027 Y84.566 E0.01350
G1 X129.027 Y85.455 E0.02270
G1 X129.556 Y85.635 E0.01425
G1 X129.556 Y84.566 E0.02728
G1 X130.084 Y84.566 E0.01350
G1 X130.084 Y85.814 E0.03186
G1 X130.448 Y85.938 E0.00980
G1 X130.601 Y86.111 E0.00590
G1 X130.613 Y86.150 E0.00105
G1 X130.613 Y84.566 E0.04043
G1 X131.142 Y84.566 E0.01350
G1 X131.142 Y86.411 E0.04709
G1 X131.670 Y86.671 E0.01505
G1 X131.670 Y84.566 E0.05374
G1 X132.199 Y84.566 E0.01350
G1 X132.199 Y86.895 E0.05946
G1 X132.727 Y86.895 E0.01350
G1 X132.727 Y84.566 E0.05946
G1 X133.256 Y84.566 E0.01350
G1 X133.256 Y86.895 E0.05946
G1 X133.285 Y86.895 E0.00076
G1 X133.285 Y87.475 E0.01481
G1 X133.784 Y87.808 E0.01532
G1 X133.784 Y86.895 E0.02332
G1 X134.313 Y86.895 E0.01350
G1 X134.313 Y88.427 E0.03912
G1 X134.841 Y88.890 E0.01795
G1 X134.841 Y86.895 E0.05095
G1 X135.370 Y86.895 E0.01350
G1 X135.370 Y89.224 E0.05946
G1 X135.614 Y89.224 E0.00623
G1 X135.614 Y89.440 E0.00553
G1 X135.898 Y89.764 E0.01102
G1 X135.898 Y89.224 E0.01381
G1 X136.427 Y89.224 E0.01350
G1 X136.427 Y90.367 E0.02920
G1 X136.532 Y90.487 E0.00408
G1 X136.578 Y90.714 E0.00590
G1 X136.566 Y90.750 E0.00096
G1 X136.955 Y91.332 E0.01788
G1 X136.955 Y89.224 E0.05384
G1 X137.484 Y89.224 E0.01350
G1 X137.484 Y92.389 E0.08083
G1 F8640
G1 X137.484 Y89.224 E-0.73093
G1 X137.358 Y89.224 E-0.02907
G1 E-0.04000 F2100.00000
G1 Z0.800 F10800.000
G1 X138.541 Y94.759
G1 Z0.200
G1 E0.80000 F2100.00000
G1 F1800
G1 X138.541 Y93.881 E0.02244
G1 X139.070 Y93.881 E0.01350
G1 X139.070 Y95.993 E0.05393
G1 X140.166 Y93.697 F10800.000
G1 F1800
G1 X140.166 Y83.919 E0.30659
G1 X139.412 Y83.919 E0.02365
G1 X139.412 Y93.528 E0.30127
G1 X138.658 Y93.528 E0.02365
G1 X138.658 Y83.919 E0.30127
G1 X138.590 Y83.919 E0.00215
G1 X138.590 Y81.591 E0.07301
G1 X137.904 Y81.591 E0.02150
G1 X137.904 Y88.871 E0.22826
G1 X137.150 Y88.871 E0.02365
G1 X137.150 Y81.591 E0.22826
G1 X136.396 Y81.591 E0.02365
G1 X136.396 Y88.871 E0.22826
G1 X135.967 Y88.871 E0.01345
G1 X135.967 Y86.542 E0.07301
G1 X135.641 Y86.542 E0.01020
G1 X135.641 Y81.591 E0.15525
G1 X134.887 Y81.591 E0.02365
G1 X134.887 Y86.542 E0.15525
G1 X134.133 Y86.542 E0.02365
G1 X134.133 Y81.591 E0.15525
G1 X133.379 Y81.591 E0.02365
G1 X133.379 Y84.214 E0.08224
G1 X132.625 Y84.214 E0.02365
G1 X132.625 Y81.591 E0.08224
G1 X131.871 Y81.591 E0.02365
G1 X131.871 Y84.214 E0.08224
G1 X131.116 Y84.214 E0.02365
G1 X131.116 Y81.591 E0.08224
G1 X130.362 Y81.591 E0.02365
G1 X130.362 Y84.214 E0.08224
G1 X129.608 Y84.214 E0.02365
G1 X129.608 Y81.591 E0.08224
G1 X128.854 Y81.591 E0.02365
G1 X128.854 Y84.214 E0.08224
G1 X128.100 Y84.214 E0.02365
G1 X128.100 Y81.591 E0.08224
G1 X127.346 Y81.591 E0.02365
G1 X127.346 Y84.214 E0.08224
G1 X126.591 Y84.214 E0.02365
G1 X126.591 Y81.591 E0.08224
G1 X125.837 Y81.591 E0.02365
G1 X125.837 Y84.214 E0.08224
G1 X125.083 Y84.214 E0.02365
G1 X125.083 Y81.591 E0.08224
G1 X124.329 Y81.591 E0.02365
G1 X124.329 Y84.214 E0.08224
G1 X123.575 Y84.214 E0.02365
G1 X123.575 Y81.591 E0.08224
G1 X122.821 Y81.591 E0.02365
G1 X122.821 Y84.214 E0.08224
G1 X122.067 Y84.214 E0.02365
G1 X122.067 Y81.591 E0.08224
G1 X121.312 Y81.591 E0.02365
G1 X121.312 Y84.214 E0.08224
G1 X120.558 Y84.214 E0.02365
G1 X120.558 Y81.591 E0.08224
G1 X119.804 Y81.591 E0.02365
G1 X119.804 Y84.214 E0.08224
G1 X119.050 Y84.214 E0.02365
G1 X119.050 Y81.591 E0.08224
G1 X118.296 Y81.591 E0.02365
G1 X118.296 Y84.214 E0.08224
G1 X117.542 Y84.214 E0.02365
G1 X117.542 Y81.591 E0.08224
G1 X116.787 Y81.591 E0.02365
G1 X116.787 Y84.214 E0.08224
G1 X116.633 Y84.214 E0.00485
G1 X116.633 Y86.542 E0.07301
G1 X116.033 Y86.542 E0.01880
G1 X116.033 Y81.591 E0.15525
G1 X115.279 Y81.591 E0.02365
G1 X115.279 Y86.542 E0.15525
G1 X114.525 Y86.542 E0.02365
G1 X114.525 Y81.591 E0.15525
G1 X114.010 Y81.591 E0.01615
G1 X114.010 Y83.919 E0.07301
G1 X113.771 Y83.919 E0.00750
G1 X113.771 Y86.542 E0.08224
G1 X113.017 Y86.542 E0.02365
G1 X113.017 Y83.919 E0.08224
G1 X112.262 Y83.919 E0.02365
G1 X112.262 Y86.542 E0.08224
G1 X111.976 Y86.542 E0.00899
G1 X111.976 Y91.199 E0.14602
G1 X111.508 Y91.199 E0.01465
G1 X111.508 Y83.919 E0.22826
G1 X110.754 Y83.919 E0.02365
G1 X110.754 Y91.199 E0.22826
G1 X110.000 Y91.199 E0.02365
G1 X110.000 Y83.919 E0.22826
G1 X109.353 Y83.919 E0.02029
G1 X109.353 Y86.248 E0.07301
G1 X109.246 Y86.248 E0.00336
G1 X109.246 Y110.828 E0.77068
G1 X108.492 Y110.828 E0.02365
G1 X108.492 Y86.248 E0.77068
G1 X107.738 Y86.248 E0.02365
G1 X107.738 Y110.997 E0.77600
G1 X111.508 Y104.409 F10800.000
G1 F1800
G1 X111.508 Y94.812 E0.30093
G1 X111.235 Y95.616 E0.02664
G1 X111.244 Y95.659 E0.00136
G1 X111.320 Y95.747 E0.00365
G1 X110.899 Y97.860 E0.06756
G1 X110.795 Y97.912 E0.00365
G1 X110.771 Y97.949 E0.00136
G1 X110.754 Y98.211 E0.00824
G1 X110.754 Y101.356 E0.09862
G1 F8640
G1 X110.754 Y98.211 E-0.72630
G1 X110.764 Y98.065 E-0.03370
G1 E-0.04000 F2100.00000
G1 Z0.800 F10800.000
G1 X113.771 Y95.711
G1 Z0.200
G1 E0.80000 F2100.00000
G1 F1800
G1 X113.771 Y102.894 E0.22523
G1 X114.165 Y104.055 E0.03842
G1 X114.525 Y104.785 E0.02554
G1 X114.525 Y94.348 E0.32725
G1 X114.843 Y93.702 E0.02256
G1 X115.279 Y93.050 E0.02460
G1 X115.279 Y106.083 E0.40863
G1 X115.696 Y106.706 E0.02350
G1 X116.033 Y107.091 E0.01606
G1 X116.033 Y92.042 E0.47186
G1 X116.707 Y91.274 E0.03204
G1 X116.787 Y91.203 E0.00335
G1 X116.787 Y107.930 E0.52446
G1 X117.542 Y108.591 E0.03145
G1 X117.542 Y90.542 E0.56594
G1 X117.860 Y90.262 E0.01330
G1 X118.296 Y89.971 E0.01642
G1 X118.296 Y109.162 E0.60171
G1 X119.050 Y109.666 E0.02844
G1 X119.050 Y89.467 E0.63331
G1 X119.804 Y89.080 E0.02658
G1 X119.804 Y110.242 E0.66351
G1 F8640
G1 X119.804 Y106.950 E-0.76000
G1 E-0.04000 F2100.00000
G1 Z0.800 F10800.000
G1 X121.312 Y112.748
G1 Z0.200
G1 E0.80000 F2100.00000
G1 F1800
G1 X121.312 Y112.358 E0.01225
G1 X120.558 Y112.102 E0.02497
G1 X120.558 Y113.040 E0.02943
G1 X119.930 Y113.559 E0.02554
G1 X119.804 Y113.686 E0.00562
G1 X119.804 Y111.831 E0.05818
G1 X119.050 Y111.459 E0.02637
G1 X119.050 Y112.423 E0.03024
G1 X118.296 Y112.052 E0.02637
G1 X118.296 Y111.080 E0.03047
G1 X117.542 Y110.576 E0.02844
G1 X117.542 Y111.786 E0.03795
G1 X116.787 Y111.282 E0.02844
G1 X116.787 Y110.051 E0.03860
G1 X116.033 Y109.390 E0.03145
G1 X116.033 Y110.540 E0.03608
G1 X115.279 Y109.879 E0.03145
G1 X115.279 Y108.650 E0.03853
G1 X114.525 Y107.790 E0.03586
G1 X114.525 Y109.316 E0.04786
G1 X113.795 Y108.484 E0.03472
G1 X113.786 Y108.441 E0.00136
G1 X113.823 Y108.331 E0.00365
G1 X113.771 Y108.253 E0.00293
G1 X113.771 Y106.696 E0.04882
G1 X113.453 Y106.216 E0.01805
G1 X113.017 Y105.332 E0.03090
G1 X113.017 Y107.124 E0.05619
G1 X112.626 Y106.539 E0.02207
G1 X112.510 Y106.531 E0.00365
G1 X112.474 Y106.506 E0.00136
G1 X112.262 Y106.078 E0.01497
G1 X112.262 Y103.412 E0.08360
G1 X112.125 Y103.001 E0.01360
G1 X111.787 Y101.291 E0.05465
G1 X111.675 Y99.581 E0.05371
G1 X111.787 Y97.842 E0.05465
G1 X112.125 Y96.132 E0.05465
G1 X112.262 Y95.721 E0.01360
G1 X112.262 Y93.374 E0.07358
G1 X112.681 Y92.525 E0.02969
G1 X112.681 Y91.905 E0.01944
G1 X112.916 Y91.905 E0.00736
G1 X113.017 Y91.754 E0.00568
G1 X113.017 Y93.801 E0.06416
G1 X113.453 Y92.917 E0.03090
G1 X113.771 Y92.437 E0.01805
G1 X113.771 Y90.891 E0.04847
G1 X114.525 Y90.031 E0.03586
G1 X114.525 Y91.343 E0.04114
G1 X115.279 Y90.483 E0.03586
G1 X115.279 Y89.066 E0.04443
G1 X116.033 Y88.405 E0.03145
G1 X116.033 Y89.743 E0.04197
G1 X116.787 Y89.082 E0.03145
G1 X116.787 Y88.021 E0.03328
G1 X117.542 Y87.517 E0.02844
G1 X117.542 Y88.557 E0.03262
G1 X118.296 Y88.053 E0.02844
G1 X118.296 Y86.924 E0.03541
G1 X119.050 Y86.552 E0.02637
G1 X119.050 Y87.674 E0.03518
G1 X119.804 Y87.302 E0.02637
G1 X119.804 Y86.374 E0.02911
G1 X120.558 Y86.118 E0.02497
G1 X120.558 Y87.031 E0.02864
G1 X121.312 Y86.775 E0.02497
G1 X121.312 Y85.862 E0.02864
G1 X121.468 Y85.809 E0.00515
G1 X121.506 Y85.699 E0.00365
G1 X121.539 Y85.671 E0.00136
G1 X122.067 Y85.566 E0.01688
G1 X122.067 Y86.592 E0.03217
G1 X122.821 Y86.442 E0.02411
G1 X122.821 Y85.416 E0.03217
G1 X122.880 Y85.404 E0.00190
G1 X122.921 Y85.418 E0.00136
G1 X122.999 Y85.505 E0.00365
G1 X123.575 Y85.467 E0.01811
