; generated by Slic3r Prusa Edition 1.40.1+ on 2018-08-01 at 18:11:15

; 

; external perimeters extrusion width = 0.45mm
; perimeters extrusion width = 0.45mm
; infill extrusion width = 0.45mm
; solid infill extrusion width = 0.45mm
; top infill extrusion width = 0.40mm
; first layer extrusion width = 0.42mm

M107
M115 U3.2.1 ; tell printer latest fw version
M201 X1000 Y1000 Z200 E5000 ; sets maximum accelerations, mm/sec^2
M203 X200 Y200 Z12 E120 ; sets maximum feedrates, mm/sec
M204 S1250 T1250 ; sets acceleration (S) and retract acceleration (T)
M205 X10 Y10 Z0.4 E2.5 ; sets the jerk limits, mm/sec
M205 S0 T0 ; sets the minimum extruding and travel feed rate, mm/sec
M83  ; extruder relative mode
M104 S215 ; set extruder temp
M140 S60 ; set bed temp
M190 S60 ; wait for bed temp
M109 S215 ; wait for extruder temp
G28 W ; home all without mesh bed level
G80 ; mesh bed leveling
G1 Y-3.0 F1000.0 ; go outside print area
G92 E0.0
G1 X60.0 E9.0  F1000.0 ; intro line
G1 X100.0 E12.5  F1000.0 ; intro line
G92 E0.0
M221 S95
M900 K30; Filament gcode
G21 ; set units to millimeters
G90 ; use absolute coordinates
M83 ; use relative distances for extrusion
;BEFORE_LAYER_CHANGE
G92 E0.0
;0.2


G1 E-0.80000 F2100.00000
G1 Z0.600 F10800.000
;AFTER_LAYER_CHANGE
;0.2
G1 X106.491 Y86.254
G1 Z0.200
G1 E0.80000 F2100.00000
M204 S1000
G1 F1800
G1 X107.898 Y84.507 E0.07031
G1 X109.444 Y82.938 E0.06908
G1 X111.251 Y81.446 E0.07349
G1 X113.112 Y80.207 E0.07010
G1 X115.624 Y78.918 E0.08851
G1 X117.833 Y78.092 E0.07397
G1 X119.981 Y77.533 E0.06957
G1 X122.189 Y77.190 E0.07006
G1 X124.444 Y77.070 E0.07080
G1 X126.575 Y77.166 E0.06688
G1 X128.710 Y77.471 E0.06762
G1 X130.820 Y77.986 E0.06811
G1 X132.732 Y78.650 E0.06346
G1 X134.166 Y79.281 E0.04911
G1 X136.054 Y80.306 E0.06737
G1 X137.753 Y81.448 E0.06419
G1 X139.421 Y82.815 E0.06762
G1 X140.943 Y84.332 E0.06737
G1 X142.244 Y85.900 E0.06389
G1 X143.454 Y87.672 E0.06727
G1 X144.227 Y89.036 E0.04915
G1 X145.074 Y90.854 E0.06291
G1 X145.802 Y92.903 E0.06818
G1 X146.321 Y94.985 E0.06728
G1 X146.639 Y97.131 E0.06801
G1 X146.745 Y99.141 E0.06312
G1 X146.700 Y100.746 E0.05032
G1 X146.477 Y102.757 E0.06346
G1 X146.202 Y104.204 E0.04618
G1 X141.146 Y122.044 E0.58138
G1 X140.293 Y124.239 E0.07384
G1 X139.379 Y125.935 E0.06041
G1 X138.273 Y127.532 E0.06090
G1 X137.003 Y128.990 E0.06065
G1 X135.535 Y130.335 E0.06242
G1 X134.262 Y131.215 E0.04853
G1 X132.941 Y131.871 E0.04624
G1 X131.476 Y132.356 E0.04838
G1 X129.916 Y132.624 E0.04965
G1 X119.991 Y132.669 E0.31117
G1 X118.862 Y132.600 E0.03549
G1 X117.777 Y132.414 E0.03451
G1 X116.075 Y131.880 E0.05593
G1 X114.435 Y131.032 E0.05789
G1 X112.867 Y129.824 E0.06206
G1 X111.435 Y128.386 E0.06364
G1 X110.239 Y126.875 E0.06041
G1 X109.259 Y125.317 E0.05772
G1 X108.424 Y123.607 E0.05967
G1 X107.867 Y122.083 E0.05086
G1 X103.011 Y105.075 E0.55459
G1 X102.582 Y103.127 E0.06256
G1 X102.378 Y101.676 E0.04593
G1 X102.254 Y99.546 E0.06688
G1 X102.354 Y97.205 E0.07348
G1 X102.799 Y94.424 E0.08830
G1 X103.398 Y92.271 E0.07006
G1 X104.252 Y90.097 E0.07324
G1 X105.272 Y88.126 E0.06957
G1 X106.458 Y86.304 E0.06818
G1 F8640
G1 X107.898 Y84.507 E-0.53155
G1 X108.592 Y83.803 E-0.22845
G1 E-0.04000 F2100.00000
G1 Z0.800 F10800.000
G1 X108.229 Y113.434
G1 Z0.200
G1 E0.80000 F2100.00000
G1 F1800
G1 X107.445 Y112.477 E0.03880
G1 X106.814 Y111.616 E0.03347
G1 X106.236 Y110.741 E0.03288
G1 X105.705 Y109.845 E0.03266
G1 X105.198 Y108.883 E0.03409
G1 X104.734 Y107.884 E0.03454
G1 X104.332 Y106.889 E0.03365
G1 X103.995 Y105.922 E0.03210
G1 X103.702 Y104.931 E0.03241
G1 X103.443 Y103.867 E0.03433
G1 X103.238 Y102.780 E0.03468
G1 X103.088 Y101.683 E0.03471
G1 X103.004 Y100.729 E0.03004
G1 X102.962 Y99.765 E0.03025
G1 X102.970 Y98.589 E0.03688
G1 X103.027 Y97.582 E0.03161
G1 X103.132 Y96.577 E0.03170
G1 X103.292 Y95.533 E0.03311
G1 X103.505 Y94.492 E0.03332
G1 X103.768 Y93.462 E0.03333
G1 X104.082 Y92.446 E0.03334
G1 X104.446 Y91.448 E0.03332
G1 X104.858 Y90.470 E0.03327
G1 X105.317 Y89.513 E0.03327
G1 X105.823 Y88.580 E0.03328
G1 X106.530 Y87.435 E0.04220
G1 X107.137 Y86.564 E0.03328
G1 X107.789 Y85.721 E0.03344
G1 X108.436 Y84.963 E0.03122
G1 X109.115 Y84.237 E0.03119
G1 X109.828 Y83.542 E0.03120
G1 X110.573 Y82.881 E0.03125
G1 X111.397 Y82.217 E0.03315
G1 X112.255 Y81.592 E0.03330
G1 X113.135 Y81.016 E0.03298
G1 X114.050 Y80.478 E0.03329
G1 X114.993 Y79.986 E0.03334
G1 X115.965 Y79.537 E0.03359
G1 X117.213 Y79.044 E0.04206
G1 X118.187 Y78.720 E0.03219
G1 X119.177 Y78.442 E0.03224
G1 X120.179 Y78.212 E0.03224
G1 X121.191 Y78.030 E0.03223
G1 X122.210 Y77.896 E0.03221
G1 X123.234 Y77.812 E0.03223
G1 X124.261 Y77.776 E0.03224
G1 X125.292 Y77.789 E0.03230
G1 X126.393 Y77.858 E0.03461
G1 X127.486 Y77.982 E0.03448
G1 X128.570 Y78.163 E0.03447
G1 X129.645 Y78.398 E0.03449
G1 X130.706 Y78.688 E0.03449
G1 X131.751 Y79.031 E0.03448
G1 X132.777 Y79.428 E0.03449
G1 X133.779 Y79.875 E0.03441
G1 X134.728 Y80.358 E0.03338
G1 X135.651 Y80.885 E0.03334
G1 X136.547 Y81.458 E0.03334
G1 X137.413 Y82.074 E0.03334
G1 X138.249 Y82.733 E0.03334
G1 X139.049 Y83.431 E0.03331
G1 X139.806 Y84.158 E0.03293
G1 X140.441 Y84.827 E0.02891
G1 X141.051 Y85.528 E0.02913
G1 X141.727 Y86.383 E0.03418
G1 X142.362 Y87.275 E0.03431
G1 X142.950 Y88.198 E0.03432
G1 X143.491 Y89.149 E0.03432
G1 X143.979 Y90.118 E0.03401
G1 X144.424 Y91.128 E0.03460
G1 X144.813 Y92.145 E0.03412
G1 X145.153 Y93.193 E0.03455
G1 X145.429 Y94.215 E0.03321
G1 X145.654 Y95.249 E0.03317
G1 X145.828 Y96.293 E0.03317
G1 X145.951 Y97.344 E0.03319
G1 X146.022 Y98.406 E0.03336
G1 X146.040 Y99.501 E0.03436
G1 X145.995 Y100.723 E0.03831
G1 X145.882 Y101.938 E0.03826
G1 X145.736 Y102.933 E0.03155
G1 X145.544 Y103.919 E0.03150
G1 X145.292 Y104.949 E0.03325
G1 X145.000 Y105.933 E0.03215
G1 X144.637 Y106.968 E0.03442
G1 X144.222 Y107.980 E0.03427
G1 X143.788 Y108.908 E0.03212
G1 X143.310 Y109.816 E0.03218
G1 X142.748 Y110.764 E0.03457
G1 X142.165 Y111.644 E0.03309
G1 X141.546 Y112.487 E0.03278
G1 X140.775 Y113.416 E0.03787
G1 X141.038 Y114.954 E0.04890
G1 X141.142 Y116.705 E0.05500
G1 X141.057 Y118.501 E0.05639
G1 X140.763 Y120.347 E0.05861
G1 X140.217 Y122.288 E0.06320
G1 X139.511 Y124.003 E0.05816
G1 X138.614 Y125.635 E0.05841
G1 X137.537 Y127.161 E0.05855
G1 X136.359 Y128.493 E0.05575
G1 X134.781 Y129.901 E0.06631
G1 X131.306 Y131.596 E0.12124
G1 X128.891 Y131.904 E0.07631
G1 X126.533 Y131.650 E0.07437
G1 X124.490 Y130.872 E0.06855
G1 X123.734 Y131.272 E0.02683
G1 X121.611 Y131.807 E0.06864
G1 X118.749 Y131.803 E0.08975
G1 X117.060 Y131.396 E0.05446
G1 X115.490 Y130.725 E0.05355
G1 X113.132 Y128.978 E0.09199
G1 X111.896 Y127.686 E0.05606
G1 X110.797 Y126.263 E0.05638
G1 X109.871 Y124.754 E0.05553
G1 X109.109 Y123.151 E0.05563
G1 X108.517 Y121.460 E0.05618
G1 X108.106 Y119.690 E0.05697
G1 X107.883 Y117.750 E0.06123
G1 X107.885 Y115.847 E0.05968
G1 X108.066 Y114.182 E0.05249
G1 X108.217 Y113.493 E0.02213
G1 X108.641 Y113.318 F10800.000
G1 F1800
G1 X108.379 Y113.030 E0.01222
G1 X107.741 Y112.244 E0.03175
G1 X107.126 Y111.405 E0.03262
G1 X106.554 Y110.537 E0.03259
G1 X106.032 Y109.657 E0.03208
G1 X105.534 Y108.711 E0.03350
G1 X105.078 Y107.729 E0.03394
G1 X104.687 Y106.760 E0.03278
G1 X104.353 Y105.802 E0.03182
G1 X104.065 Y104.828 E0.03184
G1 X103.811 Y103.782 E0.03374
G1 X103.609 Y102.715 E0.03408
G1 X103.462 Y101.637 E0.03411
G1 X103.380 Y100.700 E0.02948
G1 X103.339 Y99.753 E0.02971
G1 X103.346 Y98.605 E0.03599
G1 X103.403 Y97.608 E0.03132
G1 X103.507 Y96.620 E0.03114
G1 X103.664 Y95.595 E0.03254
G1 X103.873 Y94.572 E0.03273
G1 X104.132 Y93.560 E0.03275
G1 X104.441 Y92.562 E0.03275
G1 X104.799 Y91.581 E0.03274
G1 X105.203 Y90.620 E0.03269
G1 X105.655 Y89.681 E0.03269
G1 X106.152 Y88.765 E0.03268
G1 X106.842 Y87.646 E0.04121
G1 X107.438 Y86.791 E0.03268
G1 X108.079 Y85.962 E0.03287
G1 X108.714 Y85.218 E0.03067
G1 X109.382 Y84.504 E0.03065
G1 X110.082 Y83.822 E0.03065
G1 X110.820 Y83.166 E0.03097
G1 X111.630 Y82.514 E0.03258
G1 X112.473 Y81.900 E0.03272
G1 X113.338 Y81.334 E0.03240
G1 X114.237 Y80.806 E0.03271
G1 X115.163 Y80.322 E0.03275
G1 X116.118 Y79.881 E0.03298
G1 X117.337 Y79.400 E0.04108
G1 X118.293 Y79.082 E0.03160
G1 X119.266 Y78.809 E0.03168
G1 X120.251 Y78.582 E0.03168
G1 X121.244 Y78.403 E0.03166
G1 X122.245 Y78.272 E0.03165
G1 X123.252 Y78.188 E0.03166
G1 X124.270 Y78.153 E0.03196
G1 X125.282 Y78.166 E0.03173
G1 X126.365 Y78.234 E0.03402
G1 X127.438 Y78.356 E0.03388
G1 X128.495 Y78.532 E0.03357
G1 X129.550 Y78.763 E0.03389
G1 X130.593 Y79.048 E0.03389
G1 X131.619 Y79.385 E0.03387
G1 X132.627 Y79.774 E0.03389
G1 X133.612 Y80.214 E0.03382
G1 X134.545 Y80.687 E0.03279
G1 X135.452 Y81.206 E0.03276
G1 X136.332 Y81.768 E0.03276
G1 X137.184 Y82.373 E0.03276
G1 X138.004 Y83.020 E0.03276
G1 X138.791 Y83.706 E0.03273
G1 X139.536 Y84.421 E0.03237
G1 X140.164 Y85.084 E0.02865
G1 X140.763 Y85.772 E0.02861
G1 X141.428 Y86.613 E0.03361
G1 X142.052 Y87.489 E0.03371
G1 X142.630 Y88.396 E0.03372
G1 X143.161 Y89.331 E0.03372
G1 X143.640 Y90.283 E0.03341
G1 X144.074 Y91.267 E0.03370
G1 X144.455 Y92.266 E0.03352
G1 X144.790 Y93.295 E0.03395
G1 X145.061 Y94.300 E0.03263
G1 X145.283 Y95.316 E0.03259
G1 X145.454 Y96.341 E0.03259
G1 X145.575 Y97.374 E0.03261
G1 X145.645 Y98.417 E0.03277
G1 X145.663 Y99.493 E0.03374
G1 X145.619 Y100.693 E0.03766
G1 X145.508 Y101.888 E0.03763
G1 X145.365 Y102.866 E0.03098
G1 X145.175 Y103.843 E0.03122
G1 X144.929 Y104.847 E0.03240
G1 X144.643 Y105.812 E0.03157
G1 X144.282 Y106.839 E0.03412
G1 X143.879 Y107.824 E0.03339
G1 X143.449 Y108.744 E0.03183
G1 X142.978 Y109.636 E0.03161
G1 X142.431 Y110.560 E0.03369
G1 X141.853 Y111.432 E0.03280
G1 X141.246 Y112.259 E0.03217
G1 X140.374 Y113.309 E0.04279
G1 X140.662 Y114.987 E0.05337
G1 X140.765 Y116.717 E0.05435
G1 X140.681 Y118.473 E0.05512
G1 X140.397 Y120.256 E0.05662
G1 X139.865 Y122.154 E0.06182
G1 X139.167 Y123.849 E0.05747
G1 X138.289 Y125.444 E0.05708
G1 X137.235 Y126.935 E0.05723
G1 X136.084 Y128.235 E0.05445
G1 X134.591 Y129.574 E0.06288
G1 X131.226 Y131.226 E0.11754
G1 X128.909 Y131.526 E0.07325
G1 X126.598 Y131.278 E0.07288
G1 X124.463 Y130.457 E0.07171
G1 X123.618 Y130.912 E0.03009
G1 X121.542 Y131.436 E0.06715
G1 X118.815 Y131.431 E0.08550
G1 X117.193 Y131.043 E0.05228
G1 X115.658 Y130.387 E0.05235
G1 X113.394 Y128.706 E0.08842
G1 X112.188 Y127.448 E0.05463
G1 X111.113 Y126.057 E0.05512
G1 X110.207 Y124.582 E0.05426
G1 X109.454 Y122.999 E0.05499
G1 X108.877 Y121.346 E0.05490
G1 X108.476 Y119.616 E0.05568
G1 X108.258 Y117.718 E0.05989
G1 X108.260 Y115.877 E0.05771
G1 X108.440 Y114.233 E0.05185
G1 X108.628 Y113.377 E0.02750
G1 X109.052 Y113.208 F10800.000
G1 F1800
G1 X108.668 Y112.789 E0.01784
G1 X108.037 Y112.010 E0.03142
G1 X107.433 Y111.185 E0.03204
G1 X106.871 Y110.333 E0.03201
G1 X106.359 Y109.469 E0.03150
G1 X105.870 Y108.540 E0.03292
G1 X105.422 Y107.575 E0.03334
G1 X105.038 Y106.623 E0.03219
G1 X104.713 Y105.691 E0.03096
G1 X104.430 Y104.735 E0.03126
G1 X104.181 Y103.708 E0.03314
G1 X103.982 Y102.659 E0.03347
G1 X103.837 Y101.599 E0.03353
G1 X103.756 Y100.671 E0.02921
G1 X103.716 Y99.742 E0.02916
G1 X103.723 Y98.613 E0.03540
G1 X103.780 Y97.634 E0.03073
G1 X103.881 Y96.664 E0.03058
G1 X104.036 Y95.657 E0.03197
G1 X104.242 Y94.652 E0.03215
G1 X104.496 Y93.658 E0.03216
G1 X104.800 Y92.678 E0.03217
G1 X105.151 Y91.715 E0.03216
G1 X105.549 Y90.771 E0.03211
G1 X105.989 Y89.856 E0.03182
G1 X106.481 Y88.949 E0.03237
G1 X107.155 Y87.857 E0.04022
G1 X107.740 Y87.018 E0.03208
G1 X108.369 Y86.203 E0.03229
G1 X108.998 Y85.465 E0.03039
G1 X109.654 Y84.765 E0.03010
G1 X110.342 Y84.095 E0.03010
G1 X111.067 Y83.451 E0.03041
G1 X111.862 Y82.811 E0.03201
G1 X112.691 Y82.208 E0.03214
G1 X113.540 Y81.652 E0.03182
G1 X114.424 Y81.133 E0.03213
G1 X115.334 Y80.658 E0.03217
G1 X116.271 Y80.226 E0.03238
G1 X117.461 Y79.756 E0.04010
G1 X118.400 Y79.444 E0.03102
G1 X119.364 Y79.173 E0.03139
G1 X120.331 Y78.951 E0.03111
G1 X121.307 Y78.775 E0.03110
G1 X122.290 Y78.646 E0.03109
G1 X123.278 Y78.564 E0.03110
G1 X124.279 Y78.530 E0.03139
G1 X125.272 Y78.543 E0.03116
G1 X126.336 Y78.610 E0.03343
G1 X127.391 Y78.731 E0.03327
G1 X128.428 Y78.903 E0.03297
G1 X129.465 Y79.130 E0.03329
G1 X130.489 Y79.410 E0.03329
G1 X131.488 Y79.738 E0.03297
G1 X132.478 Y80.121 E0.03328
G1 X133.446 Y80.552 E0.03322
G1 X134.362 Y81.017 E0.03221
G1 X135.253 Y81.526 E0.03217
G1 X136.118 Y82.078 E0.03217
G1 X136.954 Y82.673 E0.03217
G1 X137.760 Y83.307 E0.03217
G1 X138.533 Y83.981 E0.03214
G1 X139.265 Y84.684 E0.03182
G1 X139.883 Y85.335 E0.02813
G1 X140.476 Y86.017 E0.02834
G1 X141.129 Y86.843 E0.03304
G1 X141.741 Y87.704 E0.03311
G1 X142.304 Y88.587 E0.03283
G1 X142.826 Y89.505 E0.03312
G1 X143.297 Y90.440 E0.03281
G1 X143.723 Y91.406 E0.03311
G1 X144.098 Y92.387 E0.03292
G1 X144.427 Y93.399 E0.03336
G1 X144.694 Y94.385 E0.03205
G1 X144.912 Y95.383 E0.03201
G1 X145.080 Y96.390 E0.03201
G1 X145.199 Y97.404 E0.03203
G1 X145.268 Y98.428 E0.03218
G1 X145.286 Y99.484 E0.03311
G1 X145.243 Y100.663 E0.03700
G1 X145.134 Y101.838 E0.03700
G1 X144.992 Y102.807 E0.03069
G1 X144.805 Y103.766 E0.03066
G1 X144.566 Y104.744 E0.03156
G1 X144.286 Y105.692 E0.03099
G1 X143.928 Y106.710 E0.03383
G1 X143.535 Y107.669 E0.03250
G1 X143.113 Y108.572 E0.03126
G1 X142.647 Y109.456 E0.03132
G1 X142.114 Y110.356 E0.03281
G1 X141.541 Y111.220 E0.03251
G1 X140.944 Y112.033 E0.03162
G1 X140.306 Y112.818 E0.03171
G1 X139.970 Y113.186 E0.01563
G1 X140.286 Y115.020 E0.05835
G1 X140.388 Y116.729 E0.05370
G1 X140.305 Y118.444 E0.05384
G1 X140.031 Y120.165 E0.05463
G1 X139.512 Y122.021 E0.06044
G1 X138.831 Y123.677 E0.05612
G1 X137.963 Y125.253 E0.05641
G1 X136.933 Y126.708 E0.05591
G1 X135.809 Y127.977 E0.05316
G1 X134.400 Y129.248 E0.05947
G1 X131.146 Y130.857 E0.11383
G1 X128.927 Y131.149 E0.07017
G1 X126.663 Y130.906 E0.07139
G1 X124.436 Y130.042 E0.07491
G1 X123.502 Y130.553 E0.03336
G1 X121.473 Y131.064 E0.06563
G1 X118.839 Y131.054 E0.08258
G1 X117.298 Y130.680 E0.04971
G1 X115.827 Y130.049 E0.05018
G1 X113.655 Y128.434 E0.08488
G1 X112.468 Y127.194 E0.05382
G1 X111.418 Y125.835 E0.05386
G1 X110.534 Y124.394 E0.05299
G1 X109.799 Y122.846 E0.05372
G1 X109.236 Y121.231 E0.05363
G1 X108.846 Y119.541 E0.05438
G1 X108.634 Y117.686 E0.05855
G1 X108.636 Y115.908 E0.05575
G1 X108.813 Y114.285 E0.05121
G1 X109.039 Y113.267 E0.03268
G1 F8640
G1 X108.668 Y112.789 E-0.13979
G1 X108.037 Y112.010 E-0.23142
G1 X107.433 Y111.185 E-0.23599
G1 X107.069 Y110.633 E-0.15281
G1 E-0.04000 F2100.00000
G1 Z0.800 F10800.000
G1 X139.542 Y113.094
G1 Z0.200
G1 E0.80000 F2100.00000
G1 F1800
G1 X139.644 Y113.459 E0.01189
G1 X139.910 Y115.051 E0.05061
G1 X140.011 Y116.741 E0.05308
G1 X139.928 Y118.415 E0.05255
G1 X139.665 Y120.074 E0.05266
G1 X139.159 Y121.888 E0.05906
G1 X138.486 Y123.523 E0.05543
G1 X137.638 Y125.061 E0.05507
G1 X136.632 Y126.482 E0.05459
G1 X135.533 Y127.719 E0.05188
G1 X134.209 Y128.922 E0.05610
G1 X131.065 Y130.487 E0.11009
G1 X128.901 Y130.772 E0.06846
G1 X126.730 Y130.534 E0.06847
G1 X124.407 Y129.626 E0.07818
G1 X123.386 Y130.193 E0.03664
G1 X121.404 Y130.693 E0.06410
G1 X118.906 Y130.682 E0.07830
G1 X117.403 Y130.317 E0.04852
G1 X115.997 Y129.712 E0.04799
G1 X113.916 Y128.162 E0.08135
G1 X112.760 Y126.955 E0.05240
G1 X111.734 Y125.629 E0.05259
G1 X110.861 Y124.205 E0.05235
G1 X110.144 Y122.694 E0.05244
G1 X109.596 Y121.117 E0.05235
G1 X109.216 Y119.467 E0.05308
G1 X109.010 Y117.654 E0.05720
G1 X109.012 Y115.939 E0.05379
G1 X109.187 Y114.336 E0.05056
G1 X109.463 Y113.099 E0.03974
G1 X108.957 Y112.547 E0.02347
G1 X108.333 Y111.776 E0.03110
G1 X107.740 Y110.966 E0.03147
G1 X107.188 Y110.130 E0.03143
G1 X106.686 Y109.281 E0.03092
G1 X106.206 Y108.368 E0.03233
G1 X105.767 Y107.421 E0.03275
G1 X105.389 Y106.486 E0.03160
G1 X105.073 Y105.579 E0.03012
G1 X104.795 Y104.641 E0.03068
G1 X104.550 Y103.632 E0.03254
G1 X104.355 Y102.603 E0.03286
G1 X104.212 Y101.561 E0.03295
G1 X104.132 Y100.651 E0.02867
G1 X104.093 Y99.730 E0.02888
G1 X104.100 Y98.620 E0.03480
G1 X104.156 Y97.660 E0.03015
G1 X104.256 Y96.708 E0.03002
G1 X104.408 Y95.719 E0.03139
